!!!COM: Vivaldi, Antonio
!!!CDT: 1678/03/04/-1741/07/27/
!!!OTL: Concerto in E-flat Major, Op. 6, No. 2
!!!OMV: No. 3
!!!OMD: Allegro
**kern	**dynam	**kern	**kern	**dynam	**kern	**dynam	**kern	**dynam	**kern	**dynam	**kern	**dynam	**kern	**dynam
*staff8	*staff8	*staff7	*staff6	*staff6	*staff5	*staff5	*staff4	*staff4	*staff3	*staff3	*staff2	*staff2	*staff1	*staff1
*Icemba	*Icemba	*Icemba	*Icbass	*Icbass	*Icello	*Icello	*Iviola	*Iviola	*Ivioln	*Ivioln	*Ivioln	*Ivioln	*Ivioln	*Ivioln
*clefF4	*clefF4	*clefG2	*clefF4	*clefF4	*clefF4	*clefF4	*clefC3	*clefC3	*clefG2	*clefG2	*clefG2	*clefG2	*clefG2	*clefG2
*k[b-e-]	*k[b-e-]	*k[b-e-]	*k[b-e-]	*k[b-e-]	*k[b-e-]	*k[b-e-]	*k[b-e-]	*k[b-e-]	*k[b-e-]	*k[b-e-]	*k[b-e-]	*k[b-e-]	*k[b-e-]	*k[b-e-]
*M3/4	*M3/4	*M3/4	*M3/4	*M3/4	*M3/4	*M3/4	*M3/4	*M3/4	*M3/4	*M3/4	*M3/4	*M3/4	*M3/4	*M3/4
*MM120	*MM120	*MM120	*MM120	*MM120	*MM120	*MM120	*MM120	*MM120	*MM120	*MM120	*MM120	*MM120	*MM120	*MM120
=1-	=1-	=1-	=1-	=1-	=1-	=1-	=1-	=1-	=1-	=1-	=1-	=1-	=1-	=1-
4E-\	f	2.r	4E-\	f	4E-\	f	4G/	f	8r	.	8r	.	8r	.
.	.	.	.	.	.	.	.	.	8b-\	f	8ee-\	f	8ee-\	f
4E-\	.	.	4E-\	.	4E-\	.	4B-/	.	4e-/	.	4g/	.	4g/	.
4E-\	.	.	4E-\	.	4E-\	.	4A-/	.	4f/	.	4a-/	.	4a-/	.
=2	=2	=2	=2	=2	=2	=2	=2	=2	=2	=2	=2	=2	=2	=2
4E-\	.	2.r	4E-\	.	4E-\	.	4G/	.	8g/L	.	8b-\L	.	8b-\L	.
.	.	.	.	.	.	.	.	.	8b-/J	.	8ee-\J	.	8ee-\J	.
4E-\	.	.	4E-\	.	4E-\	.	4B-/	.	4e-/	.	4g/	.	4g/	.
4E-\	.	.	4E-\	.	4E-\	.	4A-/	.	4f/	.	4a-/	.	4a-/	.
=3	=3	=3	=3	=3	=3	=3	=3	=3	=3	=3	=3	=3	=3	=3
4E-\	.	2.r	4E-\	.	4E-\	.	4G/	.	8g\L	.	8b-\L	.	8b-\L	.
.	.	.	.	.	.	.	.	.	8gg\J	.	8bb-\J	.	8bb-\J	.
4BB-/	.	.	4BB-/	.	4BB-/	.	4f\	.	4b-\	.	4dd\	.	4dd\	.
4BB-/	.	.	4BB-/	.	4BB-/	.	4e-\	.	4cc\	.	4ee-\	.	4ee-\	.
=4	=4	=4	=4	=4	=4	=4	=4	=4	=4	=4	=4	=4	=4	=4
4BB-/	.	2.r	4BB-/	.	4BB-/	.	4f\	.	8dd\L	.	8b-\L	.	8b-\L	.
.	.	.	.	.	.	.	.	.	8ff\J	.	8bb-\J	.	8bb-\J	.
4BB-/	.	.	4BB-/	.	4BB-/	.	4f\	.	4b-\	.	4dd\	.	4dd\	.
4BB-/	.	.	4BB-/	.	4BB-/	.	4e-\	.	4cc\	.	4ee-\	.	4ee-\	.
=5	=5	=5	=5	=5	=5	=5	=5	=5	=5	=5	=5	=5	=5	=5
4BB-/	.	2.r	4BB-/	.	4BB-/	.	8f\L	.	8dd\L	.	8b-\L	.	8b-\L	.
.	.	.	.	.	.	.	8B-\J	.	8gg\J	.	8ee-\J	.	8ee-\J	.
4BB-/	.	.	4BB-/	.	4BB-/	.	4d\	.	4ff\	.	4aa-\	.	4aa-\	.
4BB-/	.	.	4BB-/	.	4BB-/	.	4e-\	.	4ee-\	.	4gg\	.	4gg\	.
=6	=6	=6	=6	=6	=6	=6	=6	=6	=6	=6	=6	=6	=6	=6
8BB-\L	.	2.r	8BB-\L	.	8BB-\L	.	4B-/	.	4dd\	.	4ff\	.	4ff\	.
8B-\J	.	.	8B-\J	.	8B-\J	.	.	.	.	.	.	.	.	.
4D\	.	.	4D\	.	4D\	.	4r	.	4r	.	4r	.	4r	.
4E-\	.	.	4E-\	.	4E-\	.	8r	.	8r	.	8r	.	8r	.
.	.	.	.	.	.	.	8b-\	.	8gg\	.	8gg\	.	8gg\	.
=7	=7	=7	=7	=7	=7	=7	=7	=7	=7	=7	=7	=7	=7	=7
4BB-/	.	2.r	4BB-/	.	4BB-/	.	4d\	.	8bb-\L	.	8bb-\L	.	8bb-\L	.
.	.	.	.	.	.	.	.	.	8b-\	.	8b-\	.	8b-\	.
4D\	.	.	4D\	.	4D\	.	4f\	.	8bb-\	.	8bb-\	.	8bb-\	.
.	.	.	.	.	.	.	.	.	8b-\	.	8b-\	.	8b-\	.
4BB-/	.	.	4BB-/	.	4BB-/	.	4d\	.	8bb-\	.	8bb-\	.	8bb-\	.
.	.	.	.	.	.	.	.	.	8b-\J	.	8b-\J	.	8b-\J	.
=8	=8	=8	=8	=8	=8	=8	=8	=8	=8	=8	=8	=8	=8	=8
4E-\	.	2.r	4E-\	.	4E-\	.	4g\	.	8cc\L	.	8cc\L	.	8cc\L	.
.	.	.	.	.	.	.	.	.	8bb-\	.	8bb-\	.	8bb-\	.
4r	.	.	4r	.	4r	.	4r	.	8aa-\	.	8aa-\	.	8aa-\	.
.	.	.	.	.	.	.	.	.	8gg\	.	8gg\	.	8gg\	.
4r	.	.	4r	.	4r	.	4r	.	8ff\	.	8ff\	.	8ff\	.
.	.	.	.	.	.	.	.	.	8ee-\J	.	8ee-\J	.	8ee-\J	.
=9	=9	=9	=9	=9	=9	=9	=9	=9	=9	=9	=9	=9	=9	=9
4F\	.	2.r	4F\	.	4F\	.	4cc\	.	8aa-\L	.	8aa-\L	.	8aa-\L	.
.	.	.	.	.	.	.	.	.	8cc\	.	8cc\	.	8cc\	.
4A-\	.	.	4A-\	.	4A-\	.	4cc\	.	8aa-\	.	8aa-\	.	8aa-\	.
.	.	.	.	.	.	.	.	.	8cc\	.	8cc\	.	8cc\	.
4F\	.	.	4F\	.	4F\	.	4cc\	.	8aa-\	.	8aa-\	.	8aa-\	.
.	.	.	.	.	.	.	.	.	8cc\J	.	8cc\J	.	8cc\J	.
=10	=10	=10	=10	=10	=10	=10	=10	=10	=10	=10	=10	=10	=10	=10
4D\	.	2.r	4D\	.	4D\	.	4f\	.	8b-\L	.	8b-\L	.	8b-\L	.
.	.	.	.	.	.	.	.	.	8aa-\	.	8aa-\	.	8aa-\	.
4r	.	.	4r	.	4r	.	4r	.	8gg\	.	8gg\	.	8gg\	.
.	.	.	.	.	.	.	.	.	8ff\	.	8ff\	.	8ff\	.
4r	.	.	4r	.	4r	.	4r	.	8ee-\	.	8ee-\	.	8ee-\	.
.	.	.	.	.	.	.	.	.	8dd\J	.	8dd\J	.	8dd\J	.
=11	=11	=11	=11	=11	=11	=11	=11	=11	=11	=11	=11	=11	=11	=11
4E-\	.	2.r	4E-\	.	4E-\	.	4b-\	.	8gg\L	.	8gg\L	.	8gg\L	.
.	.	.	.	.	.	.	.	.	8b-\	.	8b-\	.	8b-\	.
4G\	.	.	4G\	.	4G\	.	4b-\	.	8gg\	.	8gg\	.	8gg\	.
.	.	.	.	.	.	.	.	.	8b-\	.	8b-\	.	8b-\	.
4E-\	.	.	4E-\	.	4E-\	.	4b-\	.	8gg\	.	8gg\	.	8gg\	.
.	.	.	.	.	.	.	.	.	8b-\J	.	8b-\J	.	8b-\J	.
=12	=12	=12	=12	=12	=12	=12	=12	=12	=12	=12	=12	=12	=12	=12
8C\L	.	2.r	8C\L	.	8C\L	.	8e-\L	.	4an/	.	4an/	.	4an/	.
8c\	.	.	8c\	.	8c\	.	8e-\	.	.	.	.	.	.	.
8A\	.	.	8A\	.	8A\	.	8c\	.	4ff\	.	4ff\	.	4ff\	.
8G\	.	.	8G\	.	8G\	.	8B-\	.	.	.	.	.	.	.
8A\	.	.	8A\	.	8A\	.	8c\	.	8.r	.	8.r	.	8.r	.
8F\J	.	.	8F\J	.	8F\J	.	8A\J	.	.	.	.	.	.	.
.	.	.	.	.	.	.	.	.	16ee-\	.	16ee-\	.	16ee-\	.
=13	=13	=13	=13	=13	=13	=13	=13	=13	=13	=13	=13	=13	=13	=13
8BB-/L	.	2.r	8BB-/L	.	8BB-/L	.	8f\L	.	4dd\	.	4dd\	.	4dd\	.
8C/	.	.	8C/	.	8C/	.	8e-\	.	.	.	.	.	.	.
8D/	.	.	8D/	.	8D/	.	8f\	.	4bb-\	.	4bb-\	.	4bb-\	.
8C/	.	.	8C/	.	8C/	.	8e-\	.	.	.	.	.	.	.
8D/	.	.	8D/	.	8D/	.	8f\	.	8.r	.	8.r	.	8.r	.
8BB-/J	.	.	8BB-/J	.	8BB-/J	.	8d\J	.	.	.	.	.	.	.
.	.	.	.	.	.	.	.	.	16aa-\	.	16aa-\	.	16aa-\	.
=14	=14	=14	=14	=14	=14	=14	=14	=14	=14	=14	=14	=14	=14	=14
8E-\L	.	2.r	8E-\L	.	8E-\L	.	8B-\L	.	8gg\L	.	8gg\L	.	8gg\L	.
8e-\	.	.	8e-\	.	8e-\	.	8ee-\	.	8ee-\	.	8ee-\	.	8ee-\	.
8d\	.	.	8d\	.	8d\	.	8dd\	.	8dd\	.	8dd\	.	8dd\	.
8c\	.	.	8c\	.	8c\	.	8cc\	.	8cc\	.	8cc\	.	8cc\	.
8B-\	.	.	8B-\	.	8B-\	.	8b-\	.	8b-\	.	8b-\	.	8b-\	.
8A-\J	.	.	8A-\J	.	8A-\J	.	8a-\J	.	8a-\J	.	8a-\J	.	8a-\J	.
=15	=15	=15	=15	=15	=15	=15	=15	=15	=15	=15	=15	=15	=15	=15
8G\L	.	2.r	8G\L	.	8G\L	.	8g\L	.	8g/L	.	8g/L	.	8g/L	.
8c\	.	.	8c\	.	8c\	.	8cc\	.	8cc/	.	8cc/	.	8cc/	.
8B-\	.	.	8B-\	.	8B-\	.	8b-\	.	8b-/	.	8b-/	.	8b-/	.
8A-\	.	.	8A-\	.	8A-\	.	8a-\	.	8a-/	.	8a-/	.	8a-/	.
8G\	.	.	8G\	.	8G\	.	8g\	.	8g/	.	8g/	.	8g/	.
8F\J	.	.	8F\J	.	8F\J	.	8f\J	.	8f/J	.	8f/J	.	8f/J	.
=16	=16	=16	=16	=16	=16	=16	=16	=16	=16	=16	=16	=16	=16	=16
8E-\L	.	2.r	8E-\L	.	8E-\L	.	8e-\L	.	8e-/L	.	8e-/L	.	8e-/L	.
8G\	.	.	8G\	.	8G\	.	8g\	.	8g/	.	8g/	.	8g/	.
8F\	.	.	8F\	.	8F\	.	8f\	.	8f/	.	8f/	.	8f/	.
8E-\	.	.	8E-\	.	8E-\	.	8e-\	.	8e-/	.	8e-/	.	8e-/	.
8D\	.	.	8D\	.	8D\	.	8d\	.	8d/	.	8d/	.	8d/	.
8C\J	.	.	8C\J	.	8C\J	.	8c\J	.	8c/J	.	8c/J	.	8c/J	.
=17	=17	=17	=17	=17	=17	=17	=17	=17	=17	=17	=17	=17	=17	=17
4BB-/	.	2.r	4BB-/	.	4BB-/	.	4B-/	.	4B-/	.	4B-/	.	4B-/	.
4r	.	.	4r	.	4r	.	4r	.	4r	.	4r	.	4r	.
4e-\	.	.	4e-\	.	4e-\	.	4ee-\	.	4ee-\	.	4ee-\	.	4ee-\	.
=18	=18	=18	=18	=18	=18	=18	=18	=18	=18	=18	=18	=18	=18	=18
4A-\	.	2.r	4A-\	.	4A-\	.	4a-\	.	4a-/	.	4a-/	.	4a-/	.
4F\	.	.	4F\	.	4F\	.	4f\	.	4f/	.	4f/	.	4f/	.
4B-\	.	.	4B-\	.	4B-\	.	4b-\	.	4b-\	.	4b-\	.	4b-\	.
=19	=19	=19	=19	=19	=19	=19	=19	=19	=19	=19	=19	=19	=19	=19
4G\	.	2.r	4G\	.	4G\	.	4g\	.	4g/	.	4g/	.	4g/	.
4r	.	.	4r	.	4r	.	4r	.	4r	.	4r	.	4r	.
4e-\	.	.	4e-\	.	4e-\	.	4ee-\	.	4ee-\	.	4ee-\	.	4ee-\	.
=20	=20	=20	=20	=20	=20	=20	=20	=20	=20	=20	=20	=20	=20	=20
4A-\	.	2.r	4A-\	.	4A-\	.	4a-\	.	4a-/	.	4a-/	.	4a-/	.
4F\	.	.	4F\	.	4F\	.	4f\	.	4f/	.	4f/	.	4f/	.
4B-\	.	.	4B-\	.	4B-\	.	4b-\	.	4b-\	.	4b-\	.	4b-\	.
=21	=21	=21	=21	=21	=21	=21	=21	=21	=21	=21	=21	=21	=21	=21
4E-\	.	2.r	4E-\	.	4E-\	.	4e-\	.	4e-/	.	4e-/	.	[4ee-\	.
4r	.	.	4r	.	4r	.	4r	.	4r	.	4r	.	12ee-\L]	.
.	.	.	.	.	.	.	.	.	.	.	.	.	12ff\	.
.	.	.	.	.	.	.	.	.	.	.	.	.	12ee-\J	.
4r	.	.	4r	.	4r	.	4r	.	4r	.	4r	.	12ff\L	.
.	.	.	.	.	.	.	.	.	.	.	.	.	12ee-\	.
.	.	.	.	.	.	.	.	.	.	.	.	.	12dd\J	.
=22	=22	=22	=22	=22	=22	=22	=22	=22	=22	=22	=22	=22	=22	=22
4E-\	.	2.r	2.r	.	4E-\	.	2.r	.	2.r	.	2.r	.	[4ee-\	.
4r	.	.	.	.	4r	.	.	.	.	.	.	.	12ee-\L]	.
.	.	.	.	.	.	.	.	.	.	.	.	.	12gg\	.
.	.	.	.	.	.	.	.	.	.	.	.	.	12ff\J	.
4r	.	.	.	.	4r	.	.	.	.	.	.	.	12gg\L	.
.	.	.	.	.	.	.	.	.	.	.	.	.	12ff\	.
.	.	.	.	.	.	.	.	.	.	.	.	.	12ee-\J	.
=23	=23	=23	=23	=23	=23	=23	=23	=23	=23	=23	=23	=23	=23	=23
4D\	.	2.r	2.r	.	4D\	.	2.r	.	2.r	.	2.r	.	[4bb-\	.
4BB-/	.	.	.	.	4BB-/	.	.	.	.	.	.	.	12bb-\L]	.
.	.	.	.	.	.	.	.	.	.	.	.	.	12ddd\	.
.	.	.	.	.	.	.	.	.	.	.	.	.	12ccc\J	.
4AA-/	.	.	.	.	4AA-/	.	.	.	.	.	.	.	12ddd\L	.
.	.	.	.	.	.	.	.	.	.	.	.	.	12ccc\	.
.	.	.	.	.	.	.	.	.	.	.	.	.	12bb-\J	.
=24	=24	=24	=24	=24	=24	=24	=24	=24	=24	=24	=24	=24	=24	=24
4GG/	.	2.r	2.r	.	4GG/	.	2.r	.	2.r	.	2.r	.	4eee-\	.
4G\	.	.	.	.	4G\	.	.	.	.	.	.	.	4ee-\	.
4F\	.	.	.	.	4F\	.	.	.	.	.	.	.	4r	.
=25	=25	=25	=25	=25	=25	=25	=25	=25	=25	=25	=25	=25	=25	=25
2E-\	.	2.r	2.r	.	2E-\	.	2.r	.	2.r	.	2.r	.	8gg\L	.
.	.	.	.	.	.	.	.	.	.	.	.	.	8b-\	.
.	.	.	.	.	.	.	.	.	.	.	.	.	8e-\	.
.	.	.	.	.	.	.	.	.	.	.	.	.	8b-\	.
4r	.	.	.	.	4r	.	.	.	.	.	.	.	8gg\	.
.	.	.	.	.	.	.	.	.	.	.	.	.	8bb-\J	.
=26	=26	=26	=26	=26	=26	=26	=26	=26	=26	=26	=26	=26	=26	=26
2D\	.	2.r	2.r	.	2D\	.	2.r	.	2.r	.	2.r	.	8ff\L	.
.	.	.	.	.	.	.	.	.	.	.	.	.	8b-\	.
.	.	.	.	.	.	.	.	.	.	.	.	.	8d\	.
.	.	.	.	.	.	.	.	.	.	.	.	.	8b-\	.
4r	.	.	.	.	4r	.	.	.	.	.	.	.	8ff\	.
.	.	.	.	.	.	.	.	.	.	.	.	.	8aa-\J	.
=27	=27	=27	=27	=27	=27	=27	=27	=27	=27	=27	=27	=27	=27	=27
2E-\	.	2.r	2.r	.	2E-\	.	2.r	.	2.r	.	2.r	.	8gg\L	.
.	.	.	.	.	.	.	.	.	.	.	.	.	8b-\	.
.	.	.	.	.	.	.	.	.	.	.	.	.	8e-\	.
.	.	.	.	.	.	.	.	.	.	.	.	.	8b-\	.
4r	.	.	.	.	4r	.	.	.	.	.	.	.	8gg\	.
.	.	.	.	.	.	.	.	.	.	.	.	.	8bb-\J	.
=28	=28	=28	=28	=28	=28	=28	=28	=28	=28	=28	=28	=28	=28	=28
2D\	.	2.r	2.r	.	2D\	.	2.r	.	2.r	.	2.r	.	8ff\L	.
.	.	.	.	.	.	.	.	.	.	.	.	.	8b-\	.
.	.	.	.	.	.	.	.	.	.	.	.	.	8d\	.
.	.	.	.	.	.	.	.	.	.	.	.	.	8b-\	.
4r	.	.	.	.	4r	.	.	.	.	.	.	.	8ff\	.
.	.	.	.	.	.	.	.	.	.	.	.	.	8aa-\J	.
=29	=29	=29	=29	=29	=29	=29	=29	=29	=29	=29	=29	=29	=29	=29
2E-\	.	2.r	2.r	.	2E-\	.	2.r	.	2.r	.	2.r	.	[4gg\	.
.	.	.	.	.	.	.	.	.	.	.	.	.	12gg\L]	.
.	.	.	.	.	.	.	.	.	.	.	.	.	12bb-\	.
.	.	.	.	.	.	.	.	.	.	.	.	.	12aa-\J	.
4r	.	.	.	.	4r	.	.	.	.	.	.	.	12bb-\L	.
.	.	.	.	.	.	.	.	.	.	.	.	.	12aa-\	.
.	.	.	.	.	.	.	.	.	.	.	.	.	12gg\J	.
=30	=30	=30	=30	=30	=30	=30	=30	=30	=30	=30	=30	=30	=30	=30
2BB-/	.	2.r	2.r	.	2BB-/	.	2.r	.	2.r	.	2.r	.	16ff\LL	.
.	.	.	.	.	.	.	.	.	.	.	.	.	16bb-\	.
.	.	.	.	.	.	.	.	.	.	.	.	.	16aa-\	.
.	.	.	.	.	.	.	.	.	.	.	.	.	16gg\JJ	.
.	.	.	.	.	.	.	.	.	.	.	.	.	8ff\L	.
.	.	.	.	.	.	.	.	.	.	.	.	.	8ee-\J	.
4r	.	.	.	.	4r	.	.	.	.	.	.	.	8dd\L	.
.	.	.	.	.	.	.	.	.	.	.	.	.	8cc\J	.
=31	=31	=31	=31	=31	=31	=31	=31	=31	=31	=31	=31	=31	=31	=31
2BB-/	.	2.r	2.r	.	2BB-/	.	2.r	.	2.r	.	2.r	.	8b-/L	.
.	.	.	.	.	.	.	.	.	.	.	.	.	16a-/L	.
.	.	.	.	.	.	.	.	.	.	.	.	.	16g/JJ	.
.	.	.	.	.	.	.	.	.	.	.	.	.	8f/L	.
.	.	.	.	.	.	.	.	.	.	.	.	.	8e-/J	.
4r	.	.	.	.	4r	.	.	.	.	.	.	.	8d/L	.
.	.	.	.	.	.	.	.	.	.	.	.	.	8c/J	.
=32	=32	=32	=32	=32	=32	=32	=32	=32	=32	=32	=32	=32	=32	=32
4B-\	.	2.r	2.r	.	4B-\	.	2.r	.	2.r	.	2.r	.	4B-/	.
8BB-/L	.	.	.	.	8BB-/L	.	.	.	.	.	.	.	4r	.
8C/	.	.	.	.	8C/	.	.	.	.	.	.	.	.	.
8D/	.	.	.	.	8D/	.	.	.	.	.	.	.	4r	.
8BB-/J	.	.	.	.	8BB-/J	.	.	.	.	.	.	.	.	.
=33	=33	=33	=33	=33	=33	=33	=33	=33	=33	=33	=33	=33	=33	=33
4E-\	.	2.r	2.r	.	4E-\	.	2.r	.	2.r	.	2.r	.	16b-/LL	.
.	.	.	.	.	.	.	.	.	.	.	.	.	16g/	.
.	.	.	.	.	.	.	.	.	.	.	.	.	16e-/	.
.	.	.	.	.	.	.	.	.	.	.	.	.	16b-/JJ	.
4G\	.	.	.	.	4G\	.	.	.	.	.	.	.	16b-/LL	.
.	.	.	.	.	.	.	.	.	.	.	.	.	16g/	.
.	.	.	.	.	.	.	.	.	.	.	.	.	16e-/	.
.	.	.	.	.	.	.	.	.	.	.	.	.	16b-/JJ	.
4E-\	.	.	.	.	4E-\	.	.	.	.	.	.	.	16b-/LL	.
.	.	.	.	.	.	.	.	.	.	.	.	.	16g/	.
.	.	.	.	.	.	.	.	.	.	.	.	.	16e-/	.
.	.	.	.	.	.	.	.	.	.	.	.	.	16b-/JJ	.
=34	=34	=34	=34	=34	=34	=34	=34	=34	=34	=34	=34	=34	=34	=34
4A-\	.	2.r	2.r	.	4A-\	.	2.r	.	2.r	.	2.r	.	16cc/LL	.
.	.	.	.	.	.	.	.	.	.	.	.	.	16a-/	.
.	.	.	.	.	.	.	.	.	.	.	.	.	16e-/	.
.	.	.	.	.	.	.	.	.	.	.	.	.	16cc/JJ	.
4r	.	.	.	.	4r	.	.	.	.	.	.	.	16cc/LL	.
.	.	.	.	.	.	.	.	.	.	.	.	.	16a-/	.
.	.	.	.	.	.	.	.	.	.	.	.	.	16e-/	.
.	.	.	.	.	.	.	.	.	.	.	.	.	16cc/JJ	.
4r	.	.	.	.	4r	.	.	.	.	.	.	.	16cc/LL	.
.	.	.	.	.	.	.	.	.	.	.	.	.	16a-/	.
.	.	.	.	.	.	.	.	.	.	.	.	.	16e-/	.
.	.	.	.	.	.	.	.	.	.	.	.	.	16ff/JJ	.
=35	=35	=35	=35	=35	=35	=35	=35	=35	=35	=35	=35	=35	=35	=35
4F\	.	2.r	2.r	.	4F\	.	2.r	.	2.r	.	2.r	.	16ff\LL	.
.	.	.	.	.	.	.	.	.	.	.	.	.	16cc\	.
.	.	.	.	.	.	.	.	.	.	.	.	.	16a\	.
.	.	.	.	.	.	.	.	.	.	.	.	.	16cc\JJ	.
4A\	.	.	.	.	4A\	.	.	.	.	.	.	.	16ff\LL	.
.	.	.	.	.	.	.	.	.	.	.	.	.	16cc\	.
.	.	.	.	.	.	.	.	.	.	.	.	.	16a\	.
.	.	.	.	.	.	.	.	.	.	.	.	.	16cc\JJ	.
4F\	.	.	.	.	4F\	.	.	.	.	.	.	.	16ff\LL	.
.	.	.	.	.	.	.	.	.	.	.	.	.	16cc\	.
.	.	.	.	.	.	.	.	.	.	.	.	.	16a\	.
.	.	.	.	.	.	.	.	.	.	.	.	.	16ff\JJ	.
=36	=36	=36	=36	=36	=36	=36	=36	=36	=36	=36	=36	=36	=36	=36
4B-\	.	2.r	2.r	.	4B-\	.	2.r	.	2.r	.	2.r	.	16ff\LL	.
.	.	.	.	.	.	.	.	.	.	.	.	.	16dd\	.
.	.	.	.	.	.	.	.	.	.	.	.	.	16b-\	.
.	.	.	.	.	.	.	.	.	.	.	.	.	16ff\JJ	.
4r	.	.	.	.	4r	.	.	.	.	.	.	.	16ff\LL	.
.	.	.	.	.	.	.	.	.	.	.	.	.	16dd\	.
.	.	.	.	.	.	.	.	.	.	.	.	.	16b-\	.
.	.	.	.	.	.	.	.	.	.	.	.	.	16ff\JJ	.
4r	.	.	.	.	4r	.	.	.	.	.	.	.	16ff\LL	.
.	.	.	.	.	.	.	.	.	.	.	.	.	16dd\	.
.	.	.	.	.	.	.	.	.	.	.	.	.	16b-\	.
.	.	.	.	.	.	.	.	.	.	.	.	.	16bb-\JJ	.
=37	=37	=37	=37	=37	=37	=37	=37	=37	=37	=37	=37	=37	=37	=37
4BB-/	.	2.r	2.r	.	4BB-/	.	2.r	.	2.r	.	2.r	.	16bb-\LL	.
.	.	.	.	.	.	.	.	.	.	.	.	.	16ff\	.
.	.	.	.	.	.	.	.	.	.	.	.	.	16dd\	.
.	.	.	.	.	.	.	.	.	.	.	.	.	16bb-\JJ	.
4D\	.	.	.	.	4D\	.	.	.	.	.	.	.	16bb-\LL	.
.	.	.	.	.	.	.	.	.	.	.	.	.	16ff\	.
.	.	.	.	.	.	.	.	.	.	.	.	.	16dd\	.
.	.	.	.	.	.	.	.	.	.	.	.	.	16bb-\JJ	.
4BB-/	.	.	.	.	4BB-/	.	.	.	.	.	.	.	16bb-\LL	.
.	.	.	.	.	.	.	.	.	.	.	.	.	16ff\	.
.	.	.	.	.	.	.	.	.	.	.	.	.	16dd\	.
.	.	.	.	.	.	.	.	.	.	.	.	.	16bb-\JJ	.
=38	=38	=38	=38	=38	=38	=38	=38	=38	=38	=38	=38	=38	=38	=38
4E-\	.	2.r	2.r	.	4E-\	.	2.r	.	2.r	.	2.r	.	16bb-\LL	.
.	.	.	.	.	.	.	.	.	.	.	.	.	16gg\	.
.	.	.	.	.	.	.	.	.	.	.	.	.	16ee-\	.
.	.	.	.	.	.	.	.	.	.	.	.	.	16bb-\JJ	.
4r	.	.	.	.	4r	.	.	.	.	.	.	.	16bb-\LL	.
.	.	.	.	.	.	.	.	.	.	.	.	.	16gg\	.
.	.	.	.	.	.	.	.	.	.	.	.	.	16ee-\	.
.	.	.	.	.	.	.	.	.	.	.	.	.	16bb-\JJ	.
4r	.	.	.	.	4r	.	.	.	.	.	.	.	16bb-\LL	.
.	.	.	.	.	.	.	.	.	.	.	.	.	16gg\	.
.	.	.	.	.	.	.	.	.	.	.	.	.	16ee-\	.
.	.	.	.	.	.	.	.	.	.	.	.	.	16bb-\JJ	.
=39	=39	=39	=39	=39	=39	=39	=39	=39	=39	=39	=39	=39	=39	=39
4E-\	.	2.r	2.r	.	4E-\	.	2.r	.	2.r	.	2.r	.	8ccc\L	.
.	.	.	.	.	.	.	.	.	.	.	.	.	8ddd\	.
2e-\	.	.	.	.	2e-\	.	.	.	.	.	.	.	8ccc\	.
.	.	.	.	.	.	.	.	.	.	.	.	.	8bb-\	.
.	.	.	.	.	.	.	.	.	.	.	.	.	8aa\	.
.	.	.	.	.	.	.	.	.	.	.	.	.	8gg\J	.
=40	=40	=40	=40	=40	=40	=40	=40	=40	=40	=40	=40	=40	=40	=40
4A\	.	2.r	2.r	.	4A\	.	2.r	.	2.r	.	2.r	.	8ff\L	.
.	.	.	.	.	.	.	.	.	.	.	.	.	8aa\J	.
2F\	.	.	.	.	2F\	.	.	.	.	.	.	.	4bb-\	.
.	.	.	.	.	.	.	.	.	.	.	.	.	4dd\	.
=41	=41	=41	=41	=41	=41	=41	=41	=41	=41	=41	=41	=41	=41	=41
8B-\L	.	2.r	2.r	.	8B-\L	.	2.r	.	2.r	.	2.r	.	8dd\L	.
8F\J	.	.	.	.	8F\J	.	.	.	.	.	.	.	8aa\J	.
4D\	.	.	.	.	4D\	.	.	.	.	.	.	.	4bb-\	.
4E-\	.	.	.	.	4E-\	.	.	.	.	.	.	.	4dd\	.
=42	=42	=42	=42	=42	=42	=42	=42	=42	=42	=42	=42	=42	=42	=42
2F\	.	2.r	2.r	.	2F\	.	2.r	.	2.r	.	2.r	.	8cc\L	.
.	.	.	.	.	.	.	.	.	.	.	.	.	8ff\J	.
.	.	.	.	.	.	.	.	.	.	.	.	.	4aa\	.
4FF/	.	.	.	.	4FF/	.	.	.	.	.	.	.	4cc\	.
=43	=43	=43	=43	=43	=43	=43	=43	=43	=43	=43	=43	=43	=43	=43
4BB-/	f	2.r	4BB-/	f	4BB-/	f	4d\	f	8r	.	8r	.	8b-\L	.
.	.	.	.	.	.	.	.	.	8ff\	f	8bb-\	f	8bb-\J	f
4BB-/	.	.	4BB-/	.	4BB-/	.	4f\	.	4b-\	.	4dd\	.	4dd\	.
4BB-/	.	.	4BB-/	.	4BB-/	.	4e-\	.	4cc\	.	4ee-\	.	4ee-\	.
=44	=44	=44	=44	=44	=44	=44	=44	=44	=44	=44	=44	=44	=44	=44
4BB-/	.	2.r	4BB-/	.	4BB-/	.	4d\	.	8dd\L	.	8ff\L	.	8ff\L	.
.	.	.	.	.	.	.	.	.	8ff\J	.	8bb-\J	.	8bb-\J	.
4BB-/	.	.	4BB-/	.	4BB-/	.	4f\	.	4b-\	.	4dd\	.	4dd\	.
4BB-/	.	.	4BB-/	.	4BB-/	.	4e-\	.	4cc\	.	4ee-\	.	4ee-\	.
=45	=45	=45	=45	=45	=45	=45	=45	=45	=45	=45	=45	=45	=45	=45
4BB-/	.	2.r	4BB-/	.	4BB-/	.	4d\	.	8dd\L	.	8ff\L	.	8ff\L	.
.	.	.	.	.	.	.	.	.	8ff\J	.	8bb-\J	.	8bb-\J	.
4F\	.	.	4F\	.	4F\	.	4c\	.	4f/	.	4a/	.	4a/	.
4F\	.	.	4F\	.	4F\	.	4B-/	.	4g/	.	4b-\	.	4b-\	.
=46	=46	=46	=46	=46	=46	=46	=46	=46	=46	=46	=46	=46	=46	=46
4F\	.	2.r	4F\	.	4F\	.	4c\	.	8a\L	.	8f\L	.	8f\L	.
.	.	.	.	.	.	.	.	.	8cc\J	.	8ff\J	.	8ff\J	.
4F\	.	.	4F\	.	4F\	.	4c\	.	4f/	.	4a/	.	4a/	.
4F\	.	.	4F\	.	4F\	.	4B-/	.	4g/	.	4b-\	.	4b-\	.
=47	=47	=47	=47	=47	=47	=47	=47	=47	=47	=47	=47	=47	=47	=47
4F\	.	2.r	4F\	.	4F\	.	4c\	.	8a\L	.	8f\L	.	8f\L	.
.	.	.	.	.	.	.	.	.	8f\	.	8f\	.	8f\	.
4A\	.	.	4A\	.	4A\	.	4c\	.	8ff\	.	8ff\	.	8ff\	.
.	.	.	.	.	.	.	.	.	8f\	.	8f\	.	8f\	.
4F\	.	.	4F\	.	4F\	.	4B-/	.	8ff\	.	8ff\	.	8ff\	.
.	.	.	.	.	.	.	.	.	8f\J	.	8f\J	.	8f\J	.
=48	=48	=48	=48	=48	=48	=48	=48	=48	=48	=48	=48	=48	=48	=48
4BB-/	.	2.r	4BB-/	.	4BB-/	.	4d\	.	8g\L	.	8g\L	.	8g\L	.
.	.	.	.	.	.	.	.	.	8ff\	.	8ff\	.	8ff\	.
4r	.	.	4r	.	4r	.	4r	.	8ee-\	.	8ee-\	.	8ee-\	.
.	.	.	.	.	.	.	.	.	8dd\	.	8dd\	.	8dd\	.
4r	.	.	4r	.	4r	.	4r	.	8cc\	.	8cc\	.	8cc\	.
.	.	.	.	.	.	.	.	.	8b-\J	.	8b-\J	.	8b-\J	.
=49	=49	=49	=49	=49	=49	=49	=49	=49	=49	=49	=49	=49	=49	=49
4C/	.	2.r	4C/	.	4C/	.	4g\	.	8ee-\L	.	8ee-\L	.	8ee-\L	.
.	.	.	.	.	.	.	.	.	8g\	.	8g\	.	8g\	.
4E-\	.	.	4E-\	.	4E-\	.	4g\	.	8ee-\	.	8ee-\	.	8ee-\	.
.	.	.	.	.	.	.	.	.	8g\	.	8g\	.	8g\	.
4C/	.	.	4C/	.	4C/	.	4g\	.	8ee-\	.	8ee-\	.	8ee-\	.
.	.	.	.	.	.	.	.	.	8g\J	.	8g\J	.	8g\J	.
=50	=50	=50	=50	=50	=50	=50	=50	=50	=50	=50	=50	=50	=50	=50
4AA/	.	2.r	4AA/	.	4AA/	.	4c\	.	8f\L	.	8f\L	.	8f\L	.
.	.	.	.	.	.	.	.	.	8ee-\	.	8ee-\	.	8ee-\	.
4r	.	.	4r	.	4r	.	4r	.	8dd\	.	8dd\	.	8dd\	.
.	.	.	.	.	.	.	.	.	8cc\	.	8cc\	.	8cc\	.
4r	.	.	4r	.	4r	.	4r	.	8b-\	.	8b-\	.	8b-\	.
.	.	.	.	.	.	.	.	.	8a\J	.	8a\J	.	8a\J	.
=51	=51	=51	=51	=51	=51	=51	=51	=51	=51	=51	=51	=51	=51	=51
4BB-/	.	2.r	4BB-/	.	4BB-/	.	4f\	.	8dd\L	.	8dd/L	.	8dd\L	.
.	.	.	.	.	.	.	.	.	8f\	.	8f/	.	8f\	.
4D\	.	.	4D\	.	4D/	.	4f\	.	8dd\	.	8dd/	.	8dd\	.
.	.	.	.	.	.	.	.	.	8f\	.	8f/	.	8f\	.
4BB-/	.	.	4BB-/	.	4BB-/	.	4f\	.	8dd\	.	8dd/	.	8dd\	.
.	.	.	.	.	.	.	.	.	8f\J	.	8f/J	.	8f\J	.
=52	=52	=52	=52	=52	=52	=52	=52	=52	=52	=52	=52	=52	=52	=52
8GG\L	.	2.r	8GG\L	.	8GG\L	.	8d\L	.	4e-/	.	4e-/	.	4e-/	.
8G\	.	.	8G\	.	8G\	.	8d\	.	.	.	.	.	.	.
8En\	.	.	8En\	.	8En\	.	8g\	.	4cc\	.	4cc\	.	4cc\	.
8D\	.	.	8D\	.	8D\	.	8f\	.	.	.	.	.	.	.
8E\	.	.	8E\	.	8E\	.	8g\	.	8.r	.	8.r	.	8.r	.
8C\J	.	.	8C\J	.	8C\J	.	8en\J	.	.	.	.	.	.	.
.	.	.	.	.	.	.	.	.	16b-\	.	16b-\	.	16b-\	.
=53	=53	=53	=53	=53	=53	=53	=53	=53	=53	=53	=53	=53	=53	=53
8F\L	.	2.r	8F\L	.	8F\L	.	4c\	.	4a/	.	4a/	.	4a/	.
8G\	.	.	8G\	.	8G\	.	.	.	.	.	.	.	.	.
8A\	.	.	8A\	.	8A\	.	8cc\L	.	4ff\	.	4ff\	.	4ff\	.
8G\	.	.	8G\	.	8G\	.	8b-\	.	.	.	.	.	.	.
8A\	.	.	8A\	.	8A\	.	8cc\	.	8.r	.	8.r	.	8.r	.
8F\J	.	.	8F\J	.	8F\J	.	8a\J	.	.	.	.	.	.	.
.	.	.	.	.	.	.	.	.	16ee-\	.	16ee-\	.	16ee-\	.
=54	=54	=54	=54	=54	=54	=54	=54	=54	=54	=54	=54	=54	=54	=54
4BB-/	.	2.r	4BB-/	.	4BB-/	.	4f\	.	8dd\L	.	8dd\L	.	8dd\L	.
.	.	.	.	.	.	.	.	.	8bb-\	.	8bb-\	.	8bb-\	.
4F\	.	.	4F\	.	4F\	.	4f\	.	8dd\	.	8dd\	.	8dd\	.
.	.	.	.	.	.	.	.	.	8bb-\	.	8bb-\	.	8bb-\	.
4FF/	.	.	4FF/	.	4FF/	.	4f\	.	8cc\	.	8cc\	.	8cc\	.
.	.	.	.	.	.	.	.	.	8aa\J	.	8aa\J	.	8aa\J	.
=55	=55	=55	=55	=55	=55	=55	=55	=55	=55	=55	=55	=55	=55	=55
4BB-/	.	2.r	4BB-/	.	4BB-/	.	4d\	.	4bb-\	.	4bb-\	.	16bb-\LL	.
.	.	.	.	.	.	.	.	.	.	.	.	.	16b-\	.
.	.	.	.	.	.	.	.	.	.	.	.	.	16a\	.
.	.	.	.	.	.	.	.	.	.	.	.	.	16b-\JJ	.
4BB-/	.	.	4r	.	4BB-/	.	4r	.	4r	.	4r	.	16bb-\LL	.
.	.	.	.	.	.	.	.	.	.	.	.	.	16b-\	.
.	.	.	.	.	.	.	.	.	.	.	.	.	16a\	.
.	.	.	.	.	.	.	.	.	.	.	.	.	16b-\JJ	.
4BB-/	.	.	4r	.	4BB-/	.	4r	.	4r	.	4r	.	16bb-\LL	.
.	.	.	.	.	.	.	.	.	.	.	.	.	16b-\	.
.	.	.	.	.	.	.	.	.	.	.	.	.	16a\	.
.	.	.	.	.	.	.	.	.	.	.	.	.	16b-\JJ	.
=56	=56	=56	=56	=56	=56	=56	=56	=56	=56	=56	=56	=56	=56	=56
4BB-/	.	2.r	2.r	.	4BB-/	.	2.r	.	2.r	.	2.r	.	16aa-\LL	.
.	.	.	.	.	.	.	.	.	.	.	.	.	16b-\	.
.	.	.	.	.	.	.	.	.	.	.	.	.	16a\	.
.	.	.	.	.	.	.	.	.	.	.	.	.	16b-\JJ	.
4BB-/	.	.	.	.	4BB-/	.	.	.	.	.	.	.	16aa-\LL	.
.	.	.	.	.	.	.	.	.	.	.	.	.	16b-\	.
.	.	.	.	.	.	.	.	.	.	.	.	.	16a\	.
.	.	.	.	.	.	.	.	.	.	.	.	.	16b-\JJ	.
4BB-/	.	.	.	.	4BB-/	.	.	.	.	.	.	.	16aa-\LL	.
.	.	.	.	.	.	.	.	.	.	.	.	.	16b-\	.
.	.	.	.	.	.	.	.	.	.	.	.	.	16a\	.
.	.	.	.	.	.	.	.	.	.	.	.	.	16b-\JJ	.
=57	=57	=57	=57	=57	=57	=57	=57	=57	=57	=57	=57	=57	=57	=57
4BB-/	.	2.r	2.r	.	4BB-/	.	2.r	.	2.r	.	2.r	.	16gg\LL	.
.	.	.	.	.	.	.	.	.	.	.	.	.	16b-\	.
.	.	.	.	.	.	.	.	.	.	.	.	.	16a\	.
.	.	.	.	.	.	.	.	.	.	.	.	.	16b-\JJ	.
4BB-/	.	.	.	.	4BB-/	.	.	.	.	.	.	.	16gg\LL	.
.	.	.	.	.	.	.	.	.	.	.	.	.	16b-\	.
.	.	.	.	.	.	.	.	.	.	.	.	.	16a\	.
.	.	.	.	.	.	.	.	.	.	.	.	.	16b-\JJ	.
4BB-/	.	.	.	.	4BB-/	.	.	.	.	.	.	.	16gg\LL	.
.	.	.	.	.	.	.	.	.	.	.	.	.	16b-\	.
.	.	.	.	.	.	.	.	.	.	.	.	.	16a\	.
.	.	.	.	.	.	.	.	.	.	.	.	.	16b-\JJ	.
=58	=58	=58	=58	=58	=58	=58	=58	=58	=58	=58	=58	=58	=58	=58
4BB-/	.	2.r	2.r	.	4BB-/	.	2.r	.	2.r	.	2.r	.	16ff\LL	.
.	.	.	.	.	.	.	.	.	.	.	.	.	16b-\	.
.	.	.	.	.	.	.	.	.	.	.	.	.	16a\	.
.	.	.	.	.	.	.	.	.	.	.	.	.	16b-\JJ	.
4BB-/	.	.	.	.	4BB-/	.	.	.	.	.	.	.	16ff\LL	.
.	.	.	.	.	.	.	.	.	.	.	.	.	16b-\	.
.	.	.	.	.	.	.	.	.	.	.	.	.	16a\	.
.	.	.	.	.	.	.	.	.	.	.	.	.	16b-\JJ	.
4BB-/	.	.	.	.	4BB-/	.	.	.	.	.	.	.	16ff\LL	.
.	.	.	.	.	.	.	.	.	.	.	.	.	16b-\	.
.	.	.	.	.	.	.	.	.	.	.	.	.	16a\	.
.	.	.	.	.	.	.	.	.	.	.	.	.	16b-\JJ	.
=59	=59	=59	=59	=59	=59	=59	=59	=59	=59	=59	=59	=59	=59	=59
4BBn/	.	2.r	2.r	.	4BBn/	.	2.r	.	2.r	.	2.r	.	16gg\LL	.
.	.	.	.	.	.	.	.	.	.	.	.	.	16dd\	.
.	.	.	.	.	.	.	.	.	.	.	.	.	16cc\	.
.	.	.	.	.	.	.	.	.	.	.	.	.	16dd\JJ	.
4BB/	.	.	.	.	4BB/	.	.	.	.	.	.	.	16gg\LL	.
.	.	.	.	.	.	.	.	.	.	.	.	.	16dd\	.
.	.	.	.	.	.	.	.	.	.	.	.	.	16cc\	.
.	.	.	.	.	.	.	.	.	.	.	.	.	16dd\JJ	.
4BB/	.	.	.	.	4BB/	.	.	.	.	.	.	.	16gg\LL	.
.	.	.	.	.	.	.	.	.	.	.	.	.	16dd\	.
.	.	.	.	.	.	.	.	.	.	.	.	.	16cc\	.
.	.	.	.	.	.	.	.	.	.	.	.	.	16dd\JJ	.
=60	=60	=60	=60	=60	=60	=60	=60	=60	=60	=60	=60	=60	=60	=60
4C/	.	2.r	2.r	.	4C/	.	2.r	.	2.r	.	2.r	.	16ee-\LL	.
.	.	.	.	.	.	.	.	.	.	.	.	.	16cc\	.
.	.	.	.	.	.	.	.	.	.	.	.	.	16bn\	.
.	.	.	.	.	.	.	.	.	.	.	.	.	16cc\JJ	.
4C/	.	.	.	.	4C/	.	.	.	.	.	.	.	16ee-\LL	.
.	.	.	.	.	.	.	.	.	.	.	.	.	16cc\	.
.	.	.	.	.	.	.	.	.	.	.	.	.	16b\	.
.	.	.	.	.	.	.	.	.	.	.	.	.	16cc\JJ	.
4C/	.	.	.	.	4C/	.	.	.	.	.	.	.	16ee-\LL	.
.	.	.	.	.	.	.	.	.	.	.	.	.	16cc\	.
.	.	.	.	.	.	.	.	.	.	.	.	.	16b\	.
.	.	.	.	.	.	.	.	.	.	.	.	.	16cc\JJ	.
=61	=61	=61	=61	=61	=61	=61	=61	=61	=61	=61	=61	=61	=61	=61
4C#/	.	2.r	2.r	.	4C#/	.	2.r	.	2.r	.	2.r	.	16aa\LL	.
.	.	.	.	.	.	.	.	.	.	.	.	.	16cc#\	.
.	.	.	.	.	.	.	.	.	.	.	.	.	16bn\	.
.	.	.	.	.	.	.	.	.	.	.	.	.	16cc#\JJ	.
4C#/	.	.	.	.	4C#/	.	.	.	.	.	.	.	16aa\LL	.
.	.	.	.	.	.	.	.	.	.	.	.	.	16cc#\	.
.	.	.	.	.	.	.	.	.	.	.	.	.	16b\	.
.	.	.	.	.	.	.	.	.	.	.	.	.	16cc#\JJ	.
4C#/	.	.	.	.	4C#/	.	.	.	.	.	.	.	16aa\LL	.
.	.	.	.	.	.	.	.	.	.	.	.	.	16cc#\	.
.	.	.	.	.	.	.	.	.	.	.	.	.	16b\	.
.	.	.	.	.	.	.	.	.	.	.	.	.	16cc#\JJ	.
=62	=62	=62	=62	=62	=62	=62	=62	=62	=62	=62	=62	=62	=62	=62
4D\	.	2.r	2.r	.	4D\	.	2.r	.	2.r	.	2.r	.	16ff\LL	.
.	.	.	.	.	.	.	.	.	.	.	.	.	16dd\	.
.	.	.	.	.	.	.	.	.	.	.	.	.	16cc#\	.
.	.	.	.	.	.	.	.	.	.	.	.	.	16dd\JJ	.
4D\	.	.	.	.	4D\	.	.	.	.	.	.	.	16ff\LL	.
.	.	.	.	.	.	.	.	.	.	.	.	.	16dd\	.
.	.	.	.	.	.	.	.	.	.	.	.	.	16cc#\	.
.	.	.	.	.	.	.	.	.	.	.	.	.	16dd\JJ	.
4D\	.	.	.	.	4D\	.	.	.	.	.	.	.	16ff\LL	.
.	.	.	.	.	.	.	.	.	.	.	.	.	16dd\	.
.	.	.	.	.	.	.	.	.	.	.	.	.	16cc#\	.
.	.	.	.	.	.	.	.	.	.	.	.	.	16dd\JJ	.
=63	=63	=63	=63	=63	=63	=63	=63	=63	=63	=63	=63	=63	=63	=63
4C/	.	2.r	2.r	.	4C/	.	2.r	.	2.r	.	2.r	.	16ff#\LL	.
.	.	.	.	.	.	.	.	.	.	.	.	.	16dd\	.
.	.	.	.	.	.	.	.	.	.	.	.	.	16cc\	.
.	.	.	.	.	.	.	.	.	.	.	.	.	16dd\JJ	.
4C/	.	.	.	.	4C/	.	.	.	.	.	.	.	16ff#\LL	.
.	.	.	.	.	.	.	.	.	.	.	.	.	16dd\	.
.	.	.	.	.	.	.	.	.	.	.	.	.	16cc\	.
.	.	.	.	.	.	.	.	.	.	.	.	.	16dd\JJ	.
4C/	.	.	.	.	4C/	.	.	.	.	.	.	.	16ff#\LL	.
.	.	.	.	.	.	.	.	.	.	.	.	.	16dd\	.
.	.	.	.	.	.	.	.	.	.	.	.	.	16cc\	.
.	.	.	.	.	.	.	.	.	.	.	.	.	16dd\JJ	.
=64	=64	=64	=64	=64	=64	=64	=64	=64	=64	=64	=64	=64	=64	=64
4BB-/	.	2.r	2.r	.	4BB-/	.	2.r	.	2.r	.	2.r	.	16gg\LL	.
.	.	.	.	.	.	.	.	.	.	.	.	.	16dd\	.
.	.	.	.	.	.	.	.	.	.	.	.	.	16cc\	.
.	.	.	.	.	.	.	.	.	.	.	.	.	16dd\JJ	.
4BB-/	.	.	.	.	4BB-/	.	.	.	.	.	.	.	16gg\LL	.
.	.	.	.	.	.	.	.	.	.	.	.	.	16dd\	.
.	.	.	.	.	.	.	.	.	.	.	.	.	16cc\	.
.	.	.	.	.	.	.	.	.	.	.	.	.	16dd\JJ	.
4BB-/	.	.	.	.	4BB-/	.	.	.	.	.	.	.	16gg\LL	.
.	.	.	.	.	.	.	.	.	.	.	.	.	16dd\	.
.	.	.	.	.	.	.	.	.	.	.	.	.	16cc\	.
.	.	.	.	.	.	.	.	.	.	.	.	.	16dd\JJ	.
=65	=65	=65	=65	=65	=65	=65	=65	=65	=65	=65	=65	=65	=65	=65
4.C/	.	2.r	2.r	.	4.C/	.	2.r	.	2.r	.	2.r	.	8ee-\L	.
.	.	.	.	.	.	.	.	.	.	.	.	.	8cc\	.
.	.	.	.	.	.	.	.	.	.	.	.	.	8aa-\	.
8D\	.	.	.	.	8D\	.	.	.	.	.	.	.	8ff#\	.
8BB-/L	.	.	.	.	8BB-/L	.	.	.	.	.	.	.	8gg\	.
8GG/J	.	.	.	.	8GG/J	.	.	.	.	.	.	.	8dd\J	.
=66	=66	=66	=66	=66	=66	=66	=66	=66	=66	=66	=66	=66	=66	=66
4.C/	.	2.r	2.r	.	4.C/	.	2.r	.	2.r	.	2.r	.	8ee-\L	.
.	.	.	.	.	.	.	.	.	.	.	.	.	8cc\	.
.	.	.	.	.	.	.	.	.	.	.	.	.	8aa-\	.
8D\	.	.	.	.	8D\	.	.	.	.	.	.	.	8ff#\	.
8BB-/L	.	.	.	.	8BB-/L	.	.	.	.	.	.	.	8gg\	.
8GG/J	.	.	.	.	8GG/J	.	.	.	.	.	.	.	8dd\J	.
=67	=67	=67	=67	=67	=67	=67	=67	=67	=67	=67	=67	=67	=67	=67
4C#/	.	2.r	2.r	.	4C#/	.	2.r	.	2.r	.	2.r	.	8bb-\L	.
.	.	.	.	.	.	.	.	.	.	.	.	.	8gg\J	.
4D\	.	.	.	.	4D\	.	.	.	.	.	.	.	4.ff#\	.
4DD/	.	.	.	.	4DD/	.	.	.	.	.	.	.	.	.
.	.	.	.	.	.	.	.	.	.	.	.	.	8gg\	.
=68	=68	=68	=68	=68	=68	=68	=68	=68	=68	=68	=68	=68	=68	=68
4GG/	f	2.r	4GG/	f	4GG/	f	8r	.	8r	.	8r	.	8gg\L	.
.	.	.	.	.	.	.	8B-/	f	8dd\	f	8gg\	f	8gg\J	f
4GG/	.	.	4GG/	.	4GG/	.	4d\	.	4g/	.	4b-\	.	4b-\	.
4GG/	.	.	4GG/	.	4GG/	.	4c\	.	4a/	.	4cc\	.	4cc\	.
=69	=69	=69	=69	=69	=69	=69	=69	=69	=69	=69	=69	=69	=69	=69
4GG/	.	2.r	4GG/	.	4GG/	.	8B-/L	.	8b-\L	.	8dd\L	.	8dd\L	.
.	.	.	.	.	.	.	8B-/J	.	8dd\J	.	8gg\J	.	8gg\J	.
4GG/	.	.	4GG/	.	4GG/	.	4d\	.	4g/	.	4b-\	.	4b-\	.
4GG/	.	.	4GG/	.	4GG/	.	4c\	.	4a/	.	4cc\	.	4cc\	.
=70	=70	=70	=70	=70	=70	=70	=70	=70	=70	=70	=70	=70	=70	=70
8GG/L	.	2.r	8GG/L	.	8GG/L	.	8B-\L	.	8b-\L	.	8dd\L	.	8dd\L	.
8G/	.	.	8G/	.	8G/	.	8b-\	.	8dd\	.	8gg\	.	8gg\	.
8G/	.	.	8G/	.	8G/	.	8dd\	.	8gg\	.	8bb-\	.	8bb-\	.
8GG/	.	.	8GG/	.	8GG/	.	8b-\	.	8dd\	.	8gg\	.	8gg\	.
8GG/	.	.	8GG/	.	8GG/	.	8g\	.	8b-\	.	8dd\	.	8dd\	.
8G/J	.	.	8G/J	.	8G/J	.	8b-\J	.	8dd\J	.	8gg\J	.	8gg\J	.
=71	=71	=71	=71	=71	=71	=71	=71	=71	=71	=71	=71	=71	=71	=71
8C\L	.	2.r	8C\L	.	8C\L	.	8g\L	.	8cc/L	.	8ee-\L	.	8ee-\L	.
8c\	.	.	8c\	.	8c\	.	8e-\	.	8g/	.	8cc\	.	8cc\	.
8c\	.	.	8c\	.	8c\	.	8g\	.	8cc/	.	8ee-\	.	8ee-\	.
8C\	.	.	8C\	.	8C\	.	8e-\	.	8g/	.	8cc\	.	8cc\	.
8C\	.	.	8C\	.	8C\	.	8c\	.	8e-/	.	8g\	.	8g\	.
8c\J	.	.	8c\J	.	8c\J	.	8e-\J	.	8g/J	.	8cc\J	.	8cc\J	.
=72	=72	=72	=72	=72	=72	=72	=72	=72	=72	=72	=72	=72	=72	=72
8FF/L	.	2.r	8FF/L	.	8FF/L	.	8c\L	.	8f\L	.	8a\L	.	8a\L	.
8F/	.	.	8F/	.	8F/	.	8a\	.	8cc\	.	8ff\	.	8ff\	.
8F/	.	.	8F/	.	8F/	.	8cc\	.	8ff\	.	8aa\	.	8aa\	.
8FF/	.	.	8FF/	.	8FF/	.	8a\	.	8cc\	.	8ff\	.	8ff\	.
8FF/	.	.	8FF/	.	8FF/	.	8f\	.	8a\	.	8cc\	.	8cc\	.
8F/J	.	.	8F/J	.	8F/J	.	8a\J	.	8cc\J	.	8ff\J	.	8ff\J	.
=73	=73	=73	=73	=73	=73	=73	=73	=73	=73	=73	=73	=73	=73	=73
8BB-\L	.	2.r	8BB-\L	.	8BB-\L	.	8f\L	.	8b-/L	.	8dd\L	.	8dd\L	.
8B-\	.	.	8B-\	.	8B-\	.	8d\	.	8f/	.	8b-\	.	8b-\	.
8B-\	.	.	8B-\	.	8B-\	.	8f\	.	8b-/	.	8dd\	.	8dd\	.
8BB-\	.	.	8BB-\	.	8BB-\	.	8d\	.	8f/	.	8b-\	.	8b-\	.
8BB-\	.	.	8BB-\	.	8BB-\	.	8B-\	.	8d/	.	8f\	.	8f\	.
8B-\J	.	.	8B-\J	.	8B-\J	.	8d\J	.	8f/J	.	8b-\J	.	8b-\J	.
=74	=74	=74	=74	=74	=74	=74	=74	=74	=74	=74	=74	=74	=74	=74
8EE-/L	.	2.r	8E-\L	.	8EE-/L	.	8B-\L	.	8e-\L	.	8g\L	.	8g\L	.
8E-/	.	.	8E-\	.	8E-/	.	8g\	.	8b-\	.	8ee-\	.	8ee-\	.
8E-/	.	.	8E-\	.	8E-/	.	8b-\	.	8ee-\	.	8gg\	.	8gg\	.
8EE-/	.	.	8E-\	.	8EE-/	.	8g\	.	8b-\	.	8ee-\	.	8ee-\	.
8EE-/	.	.	8E-\	.	8EE-/	.	8e-\	.	8g\	.	8b-\	.	8b-\	.
8E-/J	.	.	8E-\J	.	8E-/J	.	8g\J	.	8b-\J	.	8ee-\J	.	8ee-\J	.
=75	=75	=75	=75	=75	=75	=75	=75	=75	=75	=75	=75	=75	=75	=75
8AA-\L	.	2.r	8AA-\L	.	8AA-\L	.	8f\L	.	8a-\L	.	8cc\L	.	8cc\L	.
8A-\	.	.	8A-\	.	8A-\	.	8a-\	.	8cc\	.	8ff\	.	8ff\	.
8A-\	.	.	8A-\	.	8A-\	.	8cc\	.	8ff\	.	8aa-\	.	8aa-\	.
8AA-\	.	.	8AA-\	.	8AA-\	.	8a-\	.	8cc\	.	8ff\	.	8ff\	.
8AA-\	.	.	8AA-\	.	8AA-\	.	8f\	.	8a-\	.	8cc\	.	8cc\	.
8A-\J	.	.	8A-\J	.	8A-\J	.	8a-\J	.	8cc\J	.	8ff\J	.	8ff\J	.
=76	=76	=76	=76	=76	=76	=76	=76	=76	=76	=76	=76	=76	=76	=76
8GG/L	.	2.r	8GG/L	.	8GG/L	.	8d\L	.	8bn\L	.	8dd\L	.	8dd\L	.
8G/	.	.	8G/	.	8G/	.	8bn\	.	8dd\	.	8gg\	.	8gg\	.
8G/	.	.	8G/	.	8G/	.	8dd\	.	8gg\	.	8bbn\	.	8bbn\	.
8GG/	.	.	8GG/	.	8GG/	.	8b\	.	8dd\	.	8gg\	.	8gg\	.
8GG/	.	.	8GG/	.	8GG/	.	8g\	.	8b\	.	8dd\	.	8dd\	.
8G/J	.	.	8G/J	.	8G/J	.	8b\J	.	8dd\J	.	8gg\J	.	8gg\J	.
=77	=77	=77	=77	=77	=77	=77	=77	=77	=77	=77	=77	=77	=77	=77
8C/L	.	2.r	8C\L	.	8C/L	.	8g\L	.	8cc\L	.	8ee-\L	.	8ee-\L	.
8c/	.	.	8c\	.	8c/	.	8e-\	.	8g\	.	8cc\	.	8cc\	.
8c/	.	.	8c\	.	8c/	.	8g\	.	8cc\	.	8ee-\	.	8ee-\	.
8C/	.	.	8C\	.	8C/	.	8e-\	.	8ee-\	.	8gg\	.	8gg\	.
8C/	.	.	8C\	.	8C/	.	8c\	.	8ff\	.	8aa-\	.	8aa-\	.
8CC/J	.	.	8C\J	.	8CC/J	.	8f\J	.	8a-\J	.	8cc\J	.	8cc\J	.
=78	=78	=78	=78	=78	=78	=78	=78	=78	=78	=78	=78	=78	=78	=78
4GG/	.	2.r	4GG/	.	4GG/	.	4d\	.	4g/	.	4bn\	.	8bn/L	.
.	.	.	.	.	.	.	.	.	.	.	.	.	16g/L	.
.	.	.	.	.	.	.	.	.	.	.	.	.	16a/JJ	.
4r	.	.	4r	.	4r	.	4r	.	4r	.	4r	.	8b\L	.
.	.	.	.	.	.	.	.	.	.	.	.	.	16b\L	.
.	.	.	.	.	.	.	.	.	.	.	.	.	16cc\JJ	.
4r	.	.	4r	.	4r	.	4r	.	4r	.	4r	.	8dd\L	.
.	.	.	.	.	.	.	.	.	.	.	.	.	16dd\L	.
.	.	.	.	.	.	.	.	.	.	.	.	.	16ee-\JJ	.
=79	=79	=79	=79	=79	=79	=79	=79	=79	=79	=79	=79	=79	=79	=79
2.r	.	2.r	2.r	.	2.r	.	2.r	.	2.r	.	2.r	.	8ff\L	.
.	.	.	.	.	.	.	.	.	.	.	.	.	16dd\L	.
.	.	.	.	.	.	.	.	.	.	.	.	.	16ee-\JJ	.
.	.	.	.	.	.	.	.	.	.	.	.	.	8ff\L	.
.	.	.	.	.	.	.	.	.	.	.	.	.	16ff\L	.
.	.	.	.	.	.	.	.	.	.	.	.	.	16gg\JJ	.
.	.	.	.	.	.	.	.	.	.	.	.	.	8aa-\L	.
.	.	.	.	.	.	.	.	.	.	.	.	.	8ff\J	.
=80	=80	=80	=80	=80	=80	=80	=80	=80	=80	=80	=80	=80	=80	=80
4C/	.	2.r	4C/	.	4C/	.	4G/	.	8cc\L	.	8ee-\L	.	8ee-\L	.
.	.	.	.	.	.	.	.	.	8g\	.	8cc\	.	8cc\	.
4C/	.	.	4C/	.	4C/	.	4G/	.	8e-\	.	8g\	.	8g\	.
.	.	.	.	.	.	.	.	.	8g\	.	8cc\	.	8cc\	.
4C/	.	.	4C/	.	4C/	.	4G/	.	8cc\	.	8ee-\	.	8ee-\	.
.	.	.	.	.	.	.	.	.	8ee-\J	.	8gg\J	.	8gg\J	.
=81	=81	=81	=81	=81	=81	=81	=81	=81	=81	=81	=81	=81	=81	=81
4C/	.	2.r	4C/	.	4C/	.	4G/	.	4cc\	.	4een\	.	8een\L	.
.	.	.	.	.	.	.	.	.	.	.	.	.	16cc\L	.
.	.	.	.	.	.	.	.	.	.	.	.	.	16dd\JJ	.
4r	.	.	4r	.	4r	.	4r	.	4r	.	4r	.	8ee\L	.
.	.	.	.	.	.	.	.	.	.	.	.	.	16ee\L	.
.	.	.	.	.	.	.	.	.	.	.	.	.	16ff\JJ	.
4r	.	.	4r	.	4r	.	4r	.	4r	.	4r	.	8gg\L	.
.	.	.	.	.	.	.	.	.	.	.	.	.	16gg\L	.
.	.	.	.	.	.	.	.	.	.	.	.	.	16aa-\JJ	.
=82	=82	=82	=82	=82	=82	=82	=82	=82	=82	=82	=82	=82	=82	=82
2.r	.	2.r	2.r	.	2.r	.	2.r	.	2.r	.	2.r	.	8bb-\L	.
.	.	.	.	.	.	.	.	.	.	.	.	.	16een\L	.
.	.	.	.	.	.	.	.	.	.	.	.	.	16ff\JJ	.
.	.	.	.	.	.	.	.	.	.	.	.	.	8gg\L	.
.	.	.	.	.	.	.	.	.	.	.	.	.	16gg\L	.
.	.	.	.	.	.	.	.	.	.	.	.	.	16aa\JJ	.
.	.	.	.	.	.	.	.	.	.	.	.	.	8bb-\L	.
.	.	.	.	.	.	.	.	.	.	.	.	.	8gg\J	.
=83	=83	=83	=83	=83	=83	=83	=83	=83	=83	=83	=83	=83	=83	=83
4F\	.	2.r	4F\	.	4F\	.	4c\	.	8ff\L	.	8aa\L	.	8aa\L	.
.	.	.	.	.	.	.	.	.	8cc\	.	8ff\	.	8ff\	.
4F\	.	.	4F\	.	4F\	.	4.c\	.	8a\	.	8cc\	.	8cc\	.
.	.	.	.	.	.	.	.	.	8cc\	.	8ff\	.	8ff\	.
4F\	.	.	4F\	.	4F\	.	.	.	8ff\	.	8aa\	.	8aa\	.
.	.	.	.	.	.	.	8f\	.	8a\J	.	8cc\J	.	8cc\J	.
=84	=84	=84	=84	=84	=84	=84	=84	=84	=84	=84	=84	=84	=84	=84
4BB-/	.	2.r	4BB-/	.	4BB-/	.	4f\	.	4b-\	.	4dd\	.	8dd\L	.
.	.	.	.	.	.	.	.	.	.	.	.	.	16b-\L	.
.	.	.	.	.	.	.	.	.	.	.	.	.	16cc\JJ	.
4r	.	.	4r	.	4r	.	4r	.	4r	.	4r	.	8dd\L	.
.	.	.	.	.	.	.	.	.	.	.	.	.	16dd\L	.
.	.	.	.	.	.	.	.	.	.	.	.	.	16ee-\JJ	.
4r	.	.	4r	.	4r	.	4r	.	4r	.	4r	.	8ff\L	.
.	.	.	.	.	.	.	.	.	.	.	.	.	16ff\L	.
.	.	.	.	.	.	.	.	.	.	.	.	.	16gg\JJ	.
=85	=85	=85	=85	=85	=85	=85	=85	=85	=85	=85	=85	=85	=85	=85
2.r	.	2.r	2.r	.	2.r	.	2.r	.	2.r	.	2.r	.	8aa-\L	.
.	.	.	.	.	.	.	.	.	.	.	.	.	16dd\L	.
.	.	.	.	.	.	.	.	.	.	.	.	.	16ee-\JJ	.
.	.	.	.	.	.	.	.	.	.	.	.	.	8ff\L	.
.	.	.	.	.	.	.	.	.	.	.	.	.	16ff\L	.
.	.	.	.	.	.	.	.	.	.	.	.	.	16gg\JJ	.
.	.	.	.	.	.	.	.	.	.	.	.	.	8aa-\L	.
.	.	.	.	.	.	.	.	.	.	.	.	.	8ff\J	.
=86	=86	=86	=86	=86	=86	=86	=86	=86	=86	=86	=86	=86	=86	=86
4E-\	.	2.r	4E-\	.	4E-\	.	8r	.	8r	.	8r	.	8gg\L	.
.	.	.	.	.	.	.	8g\	.	8b-\	.	8ee-\	.	8ee-\J	.
4E-\	.	.	4E-\	.	4E-\	.	4B-/	.	4e-/	.	4g/	.	4g/	.
4E-\	.	.	4E-\	.	4E-\	.	4A-/	.	4f/	.	4a-/	.	4a-/	.
=87	=87	=87	=87	=87	=87	=87	=87	=87	=87	=87	=87	=87	=87	=87
4E-\	.	2.r	4E-\	.	4E-\	.	8G\L	.	8g/L	.	8b-\L	.	8b-\L	.
.	.	.	.	.	.	.	8g\J	.	8b-/J	.	8ee-\J	.	8ee-\J	.
4E-\	.	.	4E-\	.	4E-\	.	4B-/	.	4e-/	.	4g/	.	4g/	.
4E-\	.	.	4E-\	.	4E-\	.	4A-/	.	4f/	.	4a-/	.	4a-/	.
=88	=88	=88	=88	=88	=88	=88	=88	=88	=88	=88	=88	=88	=88	=88
4E-\	.	2.r	4E-\	.	4E-\	.	4G/	.	8g\L	.	8b-\L	.	8b-\L	.
.	.	.	.	.	.	.	.	.	8gg\J	.	8bb-\J	.	8bb-\J	.
4BB-/	.	.	4BB-/	.	4BB-/	.	4f\	.	4b-\	.	4dd\	.	4dd\	.
4BB-/	.	.	4BB-/	.	4BB-/	.	4e-\	.	4cc\	.	4ee-\	.	4ee-\	.
=89	=89	=89	=89	=89	=89	=89	=89	=89	=89	=89	=89	=89	=89	=89
4BB-/	.	2.r	4BB-/	.	4BB-/	.	4f\	.	8dd\L	.	8b-\L	.	8b-\L	.
.	.	.	.	.	.	.	.	.	8ff\J	.	8bb-\J	.	8bb-\J	.
4BB-/	.	.	4BB-/	.	4BB-/	.	4f\	.	4b-\	.	4dd\	.	4dd\	.
4BB-/	.	.	4BB-/	.	4BB-/	.	4e-\	.	4cc\	.	4ee-\	.	4ee-\	.
=90	=90	=90	=90	=90	=90	=90	=90	=90	=90	=90	=90	=90	=90	=90
4BB-/	.	2.r	4BB-/	.	4BB-/	.	8d\L	.	8dd\L	.	8b-\L	.	8b-\L	.
.	.	.	.	.	.	.	8B-\J	.	8gg\J	.	8ee-\J	.	8ee-\J	.
4BB-/	.	.	4BB-/	.	4BB-/	.	4d\	.	4ff\	.	4aa-\	.	4aa-\	.
4BB-/	.	.	4BB-/	.	4BB-/	.	4e-\	.	4ee-\	.	4gg\	.	4gg\	.
=91	=91	=91	=91	=91	=91	=91	=91	=91	=91	=91	=91	=91	=91	=91
4BB-/	.	2.r	4BB-/	.	4BB-/	.	4B-/	.	4dd\	.	4ff\	.	16ff\LL	.
.	.	.	.	.	.	.	.	.	.	.	.	.	16b-\	.
.	.	.	.	.	.	.	.	.	.	.	.	.	16dd\	.
.	.	.	.	.	.	.	.	.	.	.	.	.	16b-\JJ	.
4r	.	.	4r	.	4r	.	4D/	p	4d/	p	4d/	p	16dd\LL	.
.	.	.	.	.	.	.	.	.	.	.	.	.	16b-\	.
.	.	.	.	.	.	.	.	.	.	.	.	.	16dd\	.
.	.	.	.	.	.	.	.	.	.	.	.	.	16b-\JJ	.
4r	.	.	4r	.	4r	.	4D/	.	4d/	.	4d/	.	16dd\LL	.
.	.	.	.	.	.	.	.	.	.	.	.	.	16b-\	.
.	.	.	.	.	.	.	.	.	.	.	.	.	16dd\	.
.	.	.	.	.	.	.	.	.	.	.	.	.	16b-\JJ	.
=92	=92	=92	=92	=92	=92	=92	=92	=92	=92	=92	=92	=92	=92	=92
2.r	.	2.r	2.r	.	2.r	.	4E-/	.	4e-/	.	4e-/	.	16gg\LL	.
.	.	.	.	.	.	.	.	.	.	.	.	.	16b-\	.
.	.	.	.	.	.	.	.	.	.	.	.	.	16ee-\	.
.	.	.	.	.	.	.	.	.	.	.	.	.	16b-\JJ	.
.	.	.	.	.	.	.	4r	.	4r	.	4r	.	16ee-\LL	.
.	.	.	.	.	.	.	.	.	.	.	.	.	16b-\	.
.	.	.	.	.	.	.	.	.	.	.	.	.	16ee-\	.
.	.	.	.	.	.	.	.	.	.	.	.	.	16b-\JJ	.
.	.	.	.	.	.	.	4r	.	4r	.	4r	.	16ee-\LL	.
.	.	.	.	.	.	.	.	.	.	.	.	.	16b-\	.
.	.	.	.	.	.	.	.	.	.	.	.	.	16ee-\	.
.	.	.	.	.	.	.	.	.	.	.	.	.	16b-\JJ	.
=93	=93	=93	=93	=93	=93	=93	=93	=93	=93	=93	=93	=93	=93	=93
2.r	.	2.r	2.r	.	2.r	.	4D/	.	4d/	.	4d/	.	16ff\LL	.
.	.	.	.	.	.	.	.	.	.	.	.	.	16b-\	.
.	.	.	.	.	.	.	.	.	.	.	.	.	16dd\	.
.	.	.	.	.	.	.	.	.	.	.	.	.	16b-\JJ	.
.	.	.	.	.	.	.	4D/	.	4d/	.	4d/	.	16dd\LL	.
.	.	.	.	.	.	.	.	.	.	.	.	.	16b-\	.
.	.	.	.	.	.	.	.	.	.	.	.	.	16dd\	.
.	.	.	.	.	.	.	.	.	.	.	.	.	16b-\JJ	.
.	.	.	.	.	.	.	4D/	.	4d/	.	4d/	.	16dd\LL	.
.	.	.	.	.	.	.	.	.	.	.	.	.	16b-\	.
.	.	.	.	.	.	.	.	.	.	.	.	.	16dd\	.
.	.	.	.	.	.	.	.	.	.	.	.	.	16b-\JJ	.
=94	=94	=94	=94	=94	=94	=94	=94	=94	=94	=94	=94	=94	=94	=94
2.r	.	2.r	2.r	.	2.r	.	4E-/	.	4e-/	.	4e-/	.	16gg\LL	.
.	.	.	.	.	.	.	.	.	.	.	.	.	16b-\	.
.	.	.	.	.	.	.	.	.	.	.	.	.	16ee-\	.
.	.	.	.	.	.	.	.	.	.	.	.	.	16b-\JJ	.
.	.	.	.	.	.	.	4r	.	4r	.	4r	.	16ee-\LL	.
.	.	.	.	.	.	.	.	.	.	.	.	.	16b-\	.
.	.	.	.	.	.	.	.	.	.	.	.	.	16ee-\	.
.	.	.	.	.	.	.	.	.	.	.	.	.	16b-\JJ	.
.	.	.	.	.	.	.	4r	.	4r	.	4r	.	16ee-\LL	.
.	.	.	.	.	.	.	.	.	.	.	.	.	16b-\	.
.	.	.	.	.	.	.	.	.	.	.	.	.	16ee-\	.
.	.	.	.	.	.	.	.	.	.	.	.	.	16b-\JJ	.
=95	=95	=95	=95	=95	=95	=95	=95	=95	=95	=95	=95	=95	=95	=95
2.r	.	2.r	2.r	.	2.r	.	4En/	.	4en/	.	4en/	.	16gg\LL	.
.	.	.	.	.	.	.	.	.	.	.	.	.	16cc\	.
.	.	.	.	.	.	.	.	.	.	.	.	.	16een\	.
.	.	.	.	.	.	.	.	.	.	.	.	.	16cc\JJ	.
.	.	.	.	.	.	.	4E/	.	4e/	.	4e/	.	16ee\LL	.
.	.	.	.	.	.	.	.	.	.	.	.	.	16cc\	.
.	.	.	.	.	.	.	.	.	.	.	.	.	16ee\	.
.	.	.	.	.	.	.	.	.	.	.	.	.	16cc\JJ	.
.	.	.	.	.	.	.	4E/	.	4e/	.	4e/	.	16ee\LL	.
.	.	.	.	.	.	.	.	.	.	.	.	.	16cc\	.
.	.	.	.	.	.	.	.	.	.	.	.	.	16ee\	.
.	.	.	.	.	.	.	.	.	.	.	.	.	16cc\JJ	.
=96	=96	=96	=96	=96	=96	=96	=96	=96	=96	=96	=96	=96	=96	=96
2.r	.	2.r	2.r	.	2.r	.	4F/	.	4f/	.	4f/	.	16aa-\LL	.
.	.	.	.	.	.	.	.	.	.	.	.	.	16cc\	.
.	.	.	.	.	.	.	.	.	.	.	.	.	16ff\	.
.	.	.	.	.	.	.	.	.	.	.	.	.	16cc\JJ	.
.	.	.	.	.	.	.	4r	.	4r	.	4r	.	16ff\LL	.
.	.	.	.	.	.	.	.	.	.	.	.	.	16cc\	.
.	.	.	.	.	.	.	.	.	.	.	.	.	16ff\	.
.	.	.	.	.	.	.	.	.	.	.	.	.	16cc\JJ	.
.	.	.	.	.	.	.	4r	.	4r	.	4r	.	16ff\LL	.
.	.	.	.	.	.	.	.	.	.	.	.	.	16cc\	.
.	.	.	.	.	.	.	.	.	.	.	.	.	16ff\	.
.	.	.	.	.	.	.	.	.	.	.	.	.	16cc\JJ	.
=97	=97	=97	=97	=97	=97	=97	=97	=97	=97	=97	=97	=97	=97	=97
2.r	.	2.r	2.r	.	2.r	.	4En/	.	4en/	.	4en/	.	16gg\LL	.
.	.	.	.	.	.	.	.	.	.	.	.	.	16cc\	.
.	.	.	.	.	.	.	.	.	.	.	.	.	16een\	.
.	.	.	.	.	.	.	.	.	.	.	.	.	16cc\JJ	.
.	.	.	.	.	.	.	4E/	.	4e/	.	4e/	.	16ee\LL	.
.	.	.	.	.	.	.	.	.	.	.	.	.	16cc\	.
.	.	.	.	.	.	.	.	.	.	.	.	.	16ee\	.
.	.	.	.	.	.	.	.	.	.	.	.	.	16cc\JJ	.
.	.	.	.	.	.	.	4E/	.	4e/	.	4e/	.	16ee\LL	.
.	.	.	.	.	.	.	.	.	.	.	.	.	16cc\	.
.	.	.	.	.	.	.	.	.	.	.	.	.	16ee\	.
.	.	.	.	.	.	.	.	.	.	.	.	.	16cc\JJ	.
=98	=98	=98	=98	=98	=98	=98	=98	=98	=98	=98	=98	=98	=98	=98
2.r	.	2.r	2.r	.	2.r	.	4F/	.	4f/	.	4f/	.	16aa-\LL	.
.	.	.	.	.	.	.	.	.	.	.	.	.	16cc\	.
.	.	.	.	.	.	.	.	.	.	.	.	.	16ff\	.
.	.	.	.	.	.	.	.	.	.	.	.	.	16cc\JJ	.
.	.	.	.	.	.	.	4r	.	4r	.	4r	.	16ff\LL	.
.	.	.	.	.	.	.	.	.	.	.	.	.	16cc\	.
.	.	.	.	.	.	.	.	.	.	.	.	.	16ff\	.
.	.	.	.	.	.	.	.	.	.	.	.	.	16cc\JJ	.
.	.	.	.	.	.	.	4r	.	4r	.	4r	.	16ff\LL	.
.	.	.	.	.	.	.	.	.	.	.	.	.	16cc\	.
.	.	.	.	.	.	.	.	.	.	.	.	.	16ff\	.
.	.	.	.	.	.	.	.	.	.	.	.	.	16cc\JJ	.
=99	=99	=99	=99	=99	=99	=99	=99	=99	=99	=99	=99	=99	=99	=99
2.r	.	2.r	2.r	.	2.r	.	4F#/	.	4f#/	.	4f#/	.	16aan\LL	.
.	.	.	.	.	.	.	.	.	.	.	.	.	16dd\	.
.	.	.	.	.	.	.	.	.	.	.	.	.	16ff#\	.
.	.	.	.	.	.	.	.	.	.	.	.	.	16dd\JJ	.
.	.	.	.	.	.	.	4F#/	.	4f#/	.	4f#/	.	16ff#\LL	.
.	.	.	.	.	.	.	.	.	.	.	.	.	16dd\	.
.	.	.	.	.	.	.	.	.	.	.	.	.	16ff#\	.
.	.	.	.	.	.	.	.	.	.	.	.	.	16dd\JJ	.
.	.	.	.	.	.	.	4F#/	.	4f#/	.	4f#/	.	16ff#\LL	.
.	.	.	.	.	.	.	.	.	.	.	.	.	16dd\	.
.	.	.	.	.	.	.	.	.	.	.	.	.	16ff#\	.
.	.	.	.	.	.	.	.	.	.	.	.	.	16dd\JJ	.
=100	=100	=100	=100	=100	=100	=100	=100	=100	=100	=100	=100	=100	=100	=100
2.r	.	2.r	2.r	.	2.r	.	4G/	.	4g/	.	4g/	.	16bb-\LL	.
.	.	.	.	.	.	.	.	.	.	.	.	.	16dd\	.
.	.	.	.	.	.	.	.	.	.	.	.	.	16gg\	.
.	.	.	.	.	.	.	.	.	.	.	.	.	16dd\JJ	.
.	.	.	.	.	.	.	4r	.	4r	.	4r	.	16gg\LL	.
.	.	.	.	.	.	.	.	.	.	.	.	.	16dd\	.
.	.	.	.	.	.	.	.	.	.	.	.	.	16gg\	.
.	.	.	.	.	.	.	.	.	.	.	.	.	16dd\JJ	.
.	.	.	.	.	.	.	4r	.	4r	.	4r	.	16gg\LL	.
.	.	.	.	.	.	.	.	.	.	.	.	.	16dd\	.
.	.	.	.	.	.	.	.	.	.	.	.	.	16gg\	.
.	.	.	.	.	.	.	.	.	.	.	.	.	16dd\JJ	.
=101	=101	=101	=101	=101	=101	=101	=101	=101	=101	=101	=101	=101	=101	=101
2.r	.	2.r	2.r	.	2.r	.	4F#/	.	4f#/	.	4f#/	.	16aa\LL	.
.	.	.	.	.	.	.	.	.	.	.	.	.	16dd\	.
.	.	.	.	.	.	.	.	.	.	.	.	.	16ff#\	.
.	.	.	.	.	.	.	.	.	.	.	.	.	16dd\JJ	.
.	.	.	.	.	.	.	4F#/	.	4f#/	.	4f#/	.	16ff#\LL	.
.	.	.	.	.	.	.	.	.	.	.	.	.	16dd\	.
.	.	.	.	.	.	.	.	.	.	.	.	.	16ff#\	.
.	.	.	.	.	.	.	.	.	.	.	.	.	16dd\JJ	.
.	.	.	.	.	.	.	4F#/	.	4f#/	.	4f#/	.	16ff#\LL	.
.	.	.	.	.	.	.	.	.	.	.	.	.	16dd\	.
.	.	.	.	.	.	.	.	.	.	.	.	.	16ff#\	.
.	.	.	.	.	.	.	.	.	.	.	.	.	16dd\JJ	.
=102	=102	=102	=102	=102	=102	=102	=102	=102	=102	=102	=102	=102	=102	=102
2.r	.	2.r	2.r	.	2.r	.	4G/	.	4g/	.	4g/	.	8bb-\L	.
.	.	.	.	.	.	.	.	.	.	.	.	.	8ddd\	.
.	.	.	.	.	.	.	4r	.	4r	.	4r	.	8ccc\	.
.	.	.	.	.	.	.	.	.	.	.	.	.	8bb-\	.
.	.	.	.	.	.	.	4r	.	4r	.	4r	.	8aa\	.
.	.	.	.	.	.	.	.	.	.	.	.	.	8gg\J	.
=103	=103	=103	=103	=103	=103	=103	=103	=103	=103	=103	=103	=103	=103	=103
4C/	f	2.r	2.r	.	4C/	f	2.r	.	2.r	.	2.r	.	4ee-\	.
2BBn/	.	.	.	.	2BBn/	.	.	.	.	.	.	.	4ff\	.
.	.	.	.	.	.	.	.	.	.	.	.	.	4dd\	.
=104	=104	=104	=104	=104	=104	=104	=104	=104	=104	=104	=104	=104	=104	=104
4C/	.	2.r	2.r	.	4C/	.	2.r	.	2.r	.	2.r	.	8ee-\L	.
.	.	.	.	.	.	.	.	.	.	.	.	.	8ccc\	.
4r	.	.	.	.	4r	.	.	.	.	.	.	.	8aa\	.
.	.	.	.	.	.	.	.	.	.	.	.	.	8gg\	.
4r	.	.	.	.	4r	.	.	.	.	.	.	.	8ff\	.
.	.	.	.	.	.	.	.	.	.	.	.	.	8ee-\J	.
=105	=105	=105	=105	=105	=105	=105	=105	=105	=105	=105	=105	=105	=105	=105
4B-\	.	2.r	2.r	.	4B-\	.	2.r	.	2.r	.	2.r	.	4dd\	.
4G\	.	.	.	.	4G\	.	.	.	.	.	.	.	4ee-\	.
4A\	.	.	.	.	4A\	.	.	.	.	.	.	.	4cc#\	.
=106	=106	=106	=106	=106	=106	=106	=106	=106	=106	=106	=106	=106	=106	=106
4B-\	.	2.r	2.r	.	4B-\	.	2.r	.	2.r	.	2.r	.	8dd\L	.
.	.	.	.	.	.	.	.	.	.	.	.	.	8bb-\	.
4r	.	.	.	.	4r	.	.	.	.	.	.	.	8gg\	.
.	.	.	.	.	.	.	.	.	.	.	.	.	8ff\	.
4r	.	.	.	.	4r	.	.	.	.	.	.	.	8ee-\	.
.	.	.	.	.	.	.	.	.	.	.	.	.	8dd\J	.
=107	=107	=107	=107	=107	=107	=107	=107	=107	=107	=107	=107	=107	=107	=107
4A-\	.	2.r	2.r	.	4A-\	.	2.r	.	2.r	.	2.r	.	4cc\	.
4F\	.	.	.	.	4F\	.	.	.	.	.	.	.	4dd-\	.
4G\	.	.	.	.	4G\	.	.	.	.	.	.	.	4bn\	.
=108	=108	=108	=108	=108	=108	=108	=108	=108	=108	=108	=108	=108	=108	=108
4A-\	.	2.r	2.r	.	4A-\	.	2.r	.	2.r	.	2.r	.	8cc\L	.
.	.	.	.	.	.	.	.	.	.	.	.	.	8aa-\	.
4r	.	.	.	.	4r	.	.	.	.	.	.	.	8ff#\	.
.	.	.	.	.	.	.	.	.	.	.	.	.	8een\	.
4r	.	.	.	.	4r	.	.	.	.	.	.	.	8dd\	.
.	.	.	.	.	.	.	.	.	.	.	.	.	8cc\J	.
=109	=109	=109	=109	=109	=109	=109	=109	=109	=109	=109	=109	=109	=109	=109
4G\	.	2.r	2.r	.	4G\	.	2.r	.	2.r	.	2.r	.	4b-\	.
4E-\	.	.	.	.	4E-\	.	.	.	.	.	.	.	4cc\	.
4F\	.	.	.	.	4F\	.	.	.	.	.	.	.	4a/	.
=110	=110	=110	=110	=110	=110	=110	=110	=110	=110	=110	=110	=110	=110	=110
4G\	.	2.r	2.r	.	4G\	.	2.r	.	2.r	.	2.r	.	8b-\L	.
.	.	.	.	.	.	.	.	.	.	.	.	.	8gg\	.
4r	.	.	.	.	4r	.	.	.	.	.	.	.	8ff\	.
.	.	.	.	.	.	.	.	.	.	.	.	.	8ee-\	.
4r	.	.	.	.	4r	.	.	.	.	.	.	.	8dd\	.
.	.	.	.	.	.	.	.	.	.	.	.	.	8cc\J	.
=111	=111	=111	=111	=111	=111	=111	=111	=111	=111	=111	=111	=111	=111	=111
2.G\	.	2.r	2.r	.	2.G\	.	2.r	.	2.r	.	2.r	.	8bn\L	.
.	.	.	.	.	.	.	.	.	.	.	.	.	8aa-\	.
.	.	.	.	.	.	.	.	.	.	.	.	.	8gg\	.
.	.	.	.	.	.	.	.	.	.	.	.	.	8ff\	.
.	.	.	.	.	.	.	.	.	.	.	.	.	8ee-\	.
.	.	.	.	.	.	.	.	.	.	.	.	.	8dd\J	.
=112	=112	=112	=112	=112	=112	=112	=112	=112	=112	=112	=112	=112	=112	=112
2.E-\	.	2.r	2.r	.	2.E-\	.	2.r	.	2.r	.	2.r	.	8cc\L	.
.	.	.	.	.	.	.	.	.	.	.	.	.	8gg\	.
.	.	.	.	.	.	.	.	.	.	.	.	.	8ff\	.
.	.	.	.	.	.	.	.	.	.	.	.	.	8ee-\	.
.	.	.	.	.	.	.	.	.	.	.	.	.	8dd\	.
.	.	.	.	.	.	.	.	.	.	.	.	.	8cc\J	.
=113	=113	=113	=113	=113	=113	=113	=113	=113	=113	=113	=113	=113	=113	=113
2.F\	.	2.r	2.r	.	2.F\	.	2.r	.	2.r	.	2.r	.	4aa-\	.
.	.	.	.	.	.	.	.	.	.	.	.	.	4bb-\	.
.	.	.	.	.	.	.	.	.	.	.	.	.	4ccc\	.
=114	=114	=114	=114	=114	=114	=114	=114	=114	=114	=114	=114	=114	=114	=114
[2.BB-/	.	2.r	2.r	.	[2.BB-/	.	2.r	.	2.r	.	2.r	.	8dd\L	.
.	.	.	.	.	.	.	.	.	.	.	.	.	8a-\	.
.	.	.	.	.	.	.	.	.	.	.	.	.	8g\	.
.	.	.	.	.	.	.	.	.	.	.	.	.	8a-\	.
.	.	.	.	.	.	.	.	.	.	.	.	.	8dd\	.
.	.	.	.	.	.	.	.	.	.	.	.	.	8a-\J	.
=115	=115	=115	=115	=115	=115	=115	=115	=115	=115	=115	=115	=115	=115	=115
2.BB-/]	.	2.r	2.r	.	2.BB-/]	.	2.r	.	2.r	.	2.r	.	8dd\L	.
.	.	.	.	.	.	.	.	.	.	.	.	.	8a-\	.
.	.	.	.	.	.	.	.	.	.	.	.	.	8g\	.
.	.	.	.	.	.	.	.	.	.	.	.	.	8a-\	.
.	.	.	.	.	.	.	.	.	.	.	.	.	8dd\	.
.	.	.	.	.	.	.	.	.	.	.	.	.	8a-\J	.
=116	=116	=116	=116	=116	=116	=116	=116	=116	=116	=116	=116	=116	=116	=116
4E-\	.	2.r	2.r	.	4E-\	.	2.r	.	2.r	.	2.r	.	4.gg\	.
4e-\	.	.	.	.	4e-\	.	.	.	.	.	.	.	.	.
.	.	.	.	.	.	.	.	.	.	.	.	.	8ee-\L	.
4E-\	.	.	.	.	4E-\	.	.	.	.	.	.	.	8gg\	.
.	.	.	.	.	.	.	.	.	.	.	.	.	8bb-\J	.
=117	=117	=117	=117	=117	=117	=117	=117	=117	=117	=117	=117	=117	=117	=117
4E-\	.	2.r	2.r	.	4E-\	.	2.r	.	2.r	.	2.r	.	8eee-\L	.
.	.	.	.	.	.	.	.	.	.	.	.	.	16ee-\L	.
.	.	.	.	.	.	.	.	.	.	.	.	.	16ff\JJ	.
4r	.	.	.	.	4r	.	.	.	.	.	.	.	8gg\L	.
.	.	.	.	.	.	.	.	.	.	.	.	.	16gg\L	.
.	.	.	.	.	.	.	.	.	.	.	.	.	16aa-\JJ	.
4r	.	.	.	.	4r	.	.	.	.	.	.	.	8bb-\L	.
.	.	.	.	.	.	.	.	.	.	.	.	.	16ccc\L	.
.	.	.	.	.	.	.	.	.	.	.	.	.	16ddd\JJ	.
=118	=118	=118	=118	=118	=118	=118	=118	=118	=118	=118	=118	=118	=118	=118
4E-\	.	2.r	2.r	.	4E-\	.	2.r	.	2.r	.	2.r	.	8eee-\L	.
.	.	.	.	.	.	.	.	.	.	.	.	.	16ee-\L	.
.	.	.	.	.	.	.	.	.	.	.	.	.	16ff\JJ	.
4r	.	.	.	.	4r	.	.	.	.	.	.	.	8gg\L	.
.	.	.	.	.	.	.	.	.	.	.	.	.	16gg\L	.
.	.	.	.	.	.	.	.	.	.	.	.	.	16aa-\JJ	.
4r	.	.	.	.	4r	.	.	.	.	.	.	.	8bb-\L	.
.	.	.	.	.	.	.	.	.	.	.	.	.	16ccc\L	.
.	.	.	.	.	.	.	.	.	.	.	.	.	16ddd\JJ	.
=119	=119	=119	=119	=119	=119	=119	=119	=119	=119	=119	=119	=119	=119	=119
4E-\	.	2.r	2.r	.	4E-\	.	2.r	.	2.r	.	2.r	.	8eee-\L	.
.	.	.	.	.	.	.	.	.	.	.	.	.	8ee-\J	.
4B-\	.	.	.	.	4B-\	.	.	.	.	.	.	.	4.ff\	.
4BB-/	.	.	.	.	4BB-/	.	.	.	.	.	.	.	.	.
.	.	.	.	.	.	.	.	.	.	.	.	.	8ee-\	.
=120	=120	=120	=120	=120	=120	=120	=120	=120	=120	=120	=120	=120	=120	=120
4E-\	.	2.r	4E-\	.	4E-\	.	4g\	.	8r	.	8r	.	8ee-\L	.
.	.	.	.	.	.	.	.	.	8gg\L	.	8gg\L	.	8gg\	f
4D\	.	.	4D\	.	4D\	.	4f\	.	8bb-\	.	8bb-\	.	8bb-\	.
.	.	.	.	.	.	.	.	.	8b-\	.	8b-\	.	8b-\	.
4BB-/	.	.	4BB-/	.	4BB-/	.	4d\	.	8bb-\	.	8bb-\	.	8bb-\	.
.	.	.	.	.	.	.	.	.	8b-\J	.	8b-\J	.	8b-\J	.
=121	=121	=121	=121	=121	=121	=121	=121	=121	=121	=121	=121	=121	=121	=121
4E-\	.	2.r	4E-\	.	4E-\	.	4g\	.	8cc\L	.	8cc\L	.	8cc\L	.
.	.	.	.	.	.	.	.	.	8bb-\	.	8bb-\	.	8bb-\	.
4r	.	.	4r	.	4r	.	4r	.	8aa-\	.	8aa-\	.	8aa-\	.
.	.	.	.	.	.	.	.	.	8gg\	.	8gg\	.	8gg\	.
4r	.	.	4r	.	4r	.	4r	.	8ff\	.	8ff\	.	8ff\	.
.	.	.	.	.	.	.	.	.	8ee-\J	.	8ee-\J	.	8ee-\J	.
=122	=122	=122	=122	=122	=122	=122	=122	=122	=122	=122	=122	=122	=122	=122
4F\	.	2.r	4F\	.	4F\	.	4cc\	.	8aa-\L	.	8aa-\L	.	8aa-\L	.
.	.	.	.	.	.	.	.	.	8cc\	.	8cc\	.	8cc\	.
4A-\	.	.	4A-\	.	4A-\	.	4cc\	.	8aa-\	.	8aa-\	.	8aa-\	.
.	.	.	.	.	.	.	.	.	8cc\	.	8cc\	.	8cc\	.
4F\	.	.	4F\	.	4F\	.	4cc\	.	8aa-\	.	8aa-\	.	8aa-\	.
.	.	.	.	.	.	.	.	.	8cc\J	.	8cc\J	.	8cc\J	.
=123	=123	=123	=123	=123	=123	=123	=123	=123	=123	=123	=123	=123	=123	=123
4D\	.	2.r	4D\	.	4D\	.	4f\	.	8b-\L	.	8b-\L	.	8b-\L	.
.	.	.	.	.	.	.	.	.	8aa-\	.	8aa-\	.	8aa-\	.
4r	.	.	4r	.	4r	.	4r	.	8gg\	.	8gg\	.	8gg\	.
.	.	.	.	.	.	.	.	.	8ff\	.	8ff\	.	8ff\	.
4r	.	.	4r	.	4r	.	4r	.	8ee-\	.	8ee-\	.	8ee-\	.
.	.	.	.	.	.	.	.	.	8dd\J	.	8dd\J	.	8dd\J	.
=124	=124	=124	=124	=124	=124	=124	=124	=124	=124	=124	=124	=124	=124	=124
4E-\	.	2.r	4E-\	.	4E-\	.	4b-\	.	8gg\L	.	8gg\L	.	8gg\L	.
.	.	.	.	.	.	.	.	.	8b-\	.	8b-\	.	8b-\	.
4G\	.	.	4G\	.	4G\	.	4b-\	.	8gg\	.	8gg\	.	8gg\	.
.	.	.	.	.	.	.	.	.	8b-\	.	8b-\	.	8b-\	.
4E-\	.	.	4E-\	.	4E-\	.	4b-\	.	8gg\	.	8gg\	.	8gg\	.
.	.	.	.	.	.	.	.	.	8b-\J	.	8b-\J	.	8b-\J	.
=125	=125	=125	=125	=125	=125	=125	=125	=125	=125	=125	=125	=125	=125	=125
8C\L	.	2.r	8C\L	.	8C\L	.	8e-\L	.	4a-/	.	4a-/	.	4a-/	.
8c\	.	.	8c\	.	8c\	.	8e-\	.	.	.	.	.	.	.
8An\	.	.	8An\	.	8An\	.	8c\	.	4ff\	.	4ff\	.	4ff\	.
8G\	.	.	8G\	.	8G\	.	8B-\	.	.	.	.	.	.	.
8A\	.	.	8A\	.	8A\	.	8c\	.	8.r	.	8.r	.	8.r	.
8F\J	.	.	8F\J	.	8F\J	.	8A\J	.	.	.	.	.	.	.
.	.	.	.	.	.	.	.	.	16ee-\	.	16ee-\	.	16ee-\	.
=126	=126	=126	=126	=126	=126	=126	=126	=126	=126	=126	=126	=126	=126	=126
8BB-/L	.	2.r	8BB-/L	.	8BB-/L	.	8f\L	.	4dd\	.	4dd\	.	4dd\	.
8C/	.	.	8C/	.	8C/	.	8e-\	.	.	.	.	.	.	.
8D/	.	.	8D/	.	8D/	.	8f\	.	4bb-\	.	4bb-\	.	4bb-\	.
8C/	.	.	8C/	.	8C/	.	8e-\	.	.	.	.	.	.	.
8D/	.	.	8D/	.	8D/	.	8f\	.	8.r	.	8.r	.	8.r	.
8BB-/J	.	.	8BB-/J	.	8BB-/J	.	8d\J	.	.	.	.	.	.	.
.	.	.	.	.	.	.	.	.	16aa-\	.	16aa-\	.	16aa-\	.
=127	=127	=127	=127	=127	=127	=127	=127	=127	=127	=127	=127	=127	=127	=127
8E-\L	.	2.r	8E-\L	.	8E-\L	.	8B-\L	.	8gg\L	.	8gg\L	.	8gg\L	.
8e-\	.	.	8e-\	.	8e-\	.	8ee-\	.	8ee-\	.	8ee-\	.	8ee-\	.
8d\	.	.	8d\	.	8d\	.	8dd\	.	8dd\	.	8dd\	.	8dd\	.
8c\	.	.	8c\	.	8c\	.	8cc\	.	8cc\	.	8cc\	.	8cc\	.
8B-\	.	.	8B-\	.	8B-\	.	8b-\	.	8b-\	.	8b-\	.	8b-\	.
8A-\J	.	.	8A-\J	.	8A-\J	.	8a-\J	.	8a-\J	.	8a-\J	.	8a-\J	.
=128	=128	=128	=128	=128	=128	=128	=128	=128	=128	=128	=128	=128	=128	=128
8G\L	.	2.r	8G\L	.	8G\L	.	8g\L	.	8g/L	.	8g/L	.	8g/L	.
8c\	.	.	8c\	.	8c\	.	8cc\	.	8cc/	.	8cc/	.	8cc/	.
8B-\	.	.	8B-\	.	8B-\	.	8b-\	.	8b-/	.	8b-/	.	8b-/	.
8A-\	.	.	8A-\	.	8A-\	.	8a-\	.	8a-/	.	8a-/	.	8a-/	.
8G\	.	.	8G\	.	8G\	.	8g\	.	8g/	.	8g/	.	8g/	.
8F\J	.	.	8F\J	.	8F\J	.	8f\J	.	8f/J	.	8f/J	.	8f/J	.
=129	=129	=129	=129	=129	=129	=129	=129	=129	=129	=129	=129	=129	=129	=129
8E-\L	.	2.r	8E-\L	.	8E-\L	.	8e-\L	.	8e-/L	.	8e-/L	.	8e-/L	.
8G\	.	.	8G\	.	8G\	.	8g\	.	8g/	.	8g/	.	8g/	.
8F\	.	.	8F\	.	8F\	.	8f\	.	8f/	.	8f/	.	8f/	.
8E-\	.	.	8E-\	.	8E-\	.	8e-\	.	8e-/	.	8e-/	.	8e-/	.
8D\	.	.	8D\	.	8D\	.	8d\	.	8d/	.	8d/	.	8d/	.
8C\J	.	.	8C\J	.	8C\J	.	8c\J	.	8c/J	.	8c/J	.	8c/J	.
=130	=130	=130	=130	=130	=130	=130	=130	=130	=130	=130	=130	=130	=130	=130
4BB-/	.	2.r	4BB-/	.	4BB-/	.	4B-/	.	4B-/	.	4B-/	.	4B-/	.
4r	.	.	4r	.	4r	.	4r	.	4r	.	4r	.	4r	.
4e-\	.	.	4e-\	.	4e-\	.	4ee-\	.	4ee-\	.	4ee-\	.	4ee-\	.
=131	=131	=131	=131	=131	=131	=131	=131	=131	=131	=131	=131	=131	=131	=131
4A-\	.	2.r	4A-\	.	4A-\	.	4a-\	.	4a-/	.	4a-/	.	4a-/	.
4F\	.	.	4F\	.	4F\	.	4f\	.	4f/	.	4f/	.	4f/	.
4B-\	.	.	4B-\	.	4B-\	.	4b-\	.	4b-\	.	4b-\	.	4b-\	.
=132	=132	=132	=132	=132	=132	=132	=132	=132	=132	=132	=132	=132	=132	=132
4G\	.	2.r	4G\	.	4G\	.	4g\	.	4g/	.	4g/	.	4g/	.
4r	.	.	4r	.	4r	.	4r	.	4r	.	4r	.	4r	.
4e-\	.	.	4e-\	.	4e-\	.	4ee-\	.	4ee-\	.	4ee-\	.	4ee-\	.
=133	=133	=133	=133	=133	=133	=133	=133	=133	=133	=133	=133	=133	=133	=133
4A-\	.	2.r	4A-\	.	4A-\	.	4a-\	.	4a-/	.	4a-/	.	4a-/	.
4F\	.	.	4F\	.	4F\	.	4f\	.	4f/	.	4f/	.	4f/	.
4B-\	.	.	4B-\	.	4B-\	.	4b-\	.	4b-\	.	4b-\	.	4b-\	.
=134	=134	=134	=134	=134	=134	=134	=134	=134	=134	=134	=134	=134	=134	=134
2.E-;\	.	2.r	2.E-;\	.	2.E-;\	.	2.e-;\	.	2.e-;/	.	2.e-;/	.	2.e-;/	.
==	==	==	==	==	==	==	==	==	==	==	==	==	==	==
*-	*-	*-	*-	*-	*-	*-	*-	*-	*-	*-	*-	*-	*-	*-
!!!ENC: Don Anthony
!!!END: 2005/06/10/
!!!ONB: Converted to Humdrum by Craig Sapp 2005/06/24/
